; generated by PrusaSlicer 2.4.0+linux-x64-GTK3 on 2022-03-17 at 08:56:27 UTC

; 

; external perimeters extrusion width = 0.45mm
; perimeters extrusion width = 0.45mm
; infill extrusion width = 0.45mm
; solid infill extrusion width = 0.45mm
; top infill extrusion width = 0.40mm
; first layer extrusion width = 0.42mm

M73 P0 R123
M73 Q0 S124
M201 X1000 Y1000 Z200 E5000 ; sets maximum accelerations, mm/sec^2
M203 X200 Y200 Z12 E120 ; sets maximum feedrates, mm/sec
M204 P1250 R1250 T1250 ; sets acceleration (P, T) and retract acceleration (R), mm/sec^2
M205 X8.00 Y8.00 Z0.40 E4.50 ; sets the jerk limits, mm/sec
M205 S0 T0 ; sets the minimum extruding and travel feed rate, mm/sec
M107
;TYPE:Custom
M862.3 P "MK3S" ; printer model check
M862.1 P0.4 ; nozzle diameter check
M115 U3.10.0 ; tell printer latest fw version
G90 ; use absolute coordinates
M83 ; extruder relative mode
M104 S240 ; set extruder temp
M140 S85 ; set bed temp
M190 S85 ; wait for bed temp
M109 S240 ; wait for extruder temp
G28 W ; home all without mesh bed level
G80 ; mesh bed leveling
G1 Z0.2 F720
G1 Y-3 F1000 ; go outside print area
G92 E0
G1 X60 E9 F1000 ; intro line
G1 X100 E12.5 F1000 ; intro line
G92 E0
M221 S95

; Don't change E values below. Excessive value can damage the printer.
M907 E430 ; set extruder motor current
G21 ; set units to millimeters
G90 ; use absolute coordinates
M83 ; use relative distances for extrusion
M900 K0.08 ; Filament gcode LA 1.5
M900 K45 ; Filament gcode LA 1.0
M107
;LAYER_CHANGE
;Z:0.2
;HEIGHT:0.2
;BEFORE_LAYER_CHANGE
G92 E0.0
;0.2


G1 E-1 F2100
G1 Z.2 F720
;AFTER_LAYER_CHANGE
;0.2
G1 Z.4
G1 X85.215 Y64.744 F10800
G1 Z.2 F720
G1 E1 F2100
M204 S800
;TYPE:Skirt/Brim
;WIDTH:0.42
G1 F1200
G1 X86.26 Y63.868 E.04278
G1 X87.2 Y63.674 E.03008
G1 X152 Y63.674 E2.03176
G1 X153.307 Y64.065 E.04278
G1 X154.168 Y65.077 E.04165
G1 X161.848 Y82.168 E.58748
G1 X165.123 Y93.061 E.35665
G1 X165.177 Y93.63 E.01792
G1 X165.167 Y128.89 E1.10555
G1 X165.028 Y129.745 E.02716
G1 X163.951 Y133.763 E.13043
G1 X163.652 Y134.539 E.02611
G1 X163.023 Y135.491 E.03575
G1 X153.747 Y145.561 E.42928
G1 X152 Y146.326 E.05981
G1 X87.2 Y146.326 E2.03176
G1 X85.893 Y145.935 E.04278
G1 X85.017 Y144.889 E.04278
G1 X84.823 Y143.949 E.03008
G1 X84.823 Y66.051 E2.44244
G1 X85.197 Y64.801 E.0409
M204 S1000
; printing object relay_clip.stl id:0 copy 0
;WIPE_START
G1 F8640
G1 X86.26 Y63.868 E-.32671
G1 X87.2 Y63.674 E-.22155
G1 X88.94 Y63.674 E-.40174
;WIPE_END
G1 E-.05 F2100
G1 Z.4 F720
G1 X101.763 Y122.619 F10800
G1 Z.2 F720
G1 E1 F2100
M204 S800
;TYPE:External perimeter
G1 F1200
G1 X102.331 Y122.667 E.01789
G1 X103.239 Y122.668 E.02846
G1 X103.901 Y122.631 E.02078
G1 X104.042 Y122.235 E.01318
G1 X104.236 Y121.525 E.02308
G1 X107.071 Y123.167 E.10273
G1 X107.326 Y123.363 E.01008
G1 X107.534 Y123.634 E.01072
G1 X107.665 Y123.95 E.01072
G1 X107.707 Y124.269 E.01008
G1 X107.711 Y128.632 E.1368
G1 X107.67 Y128.945 E.00991
G1 X107.561 Y129.259 E.01041
G1 X107.384 Y129.565 E.0111
G1 X107.107 Y129.812 E.01163
G1 X106.792 Y129.958 E.01089
G1 X105.804 Y130.214 E.03199
G1 X104.836 Y130.389 E.03084
G1 X104.371 Y130.513 E.01511
G1 X99.163 Y131.908 E.16903
G1 X98.7 Y132.047 E.01516
G1 X97.746 Y132.373 E.03161
G1 X97.405 Y132.43 E.01084
G1 X97.037 Y132.387 E.01164
G1 X96.694 Y132.247 E.01161
G1 X96.401 Y132.023 E.01158
G1 X96.176 Y131.73 E.01157
G1 X96.035 Y131.389 E.01157
G1 X95.986 Y131.023 E.01157
G1 X96.035 Y130.657 E.01157
G1 X96.176 Y130.316 E.01157
G1 X96.4 Y130.024 E.01157
G1 X96.693 Y129.799 E.01157
G1 X97.009 Y129.668 E.01072
G1 X105.027 Y127.52 E.26026
G1 X105.193 Y127.451 E.00565
G1 X105.315 Y127.358 E.0048
G1 X105.408 Y127.236 E.0048
G1 X105.466 Y127.095 E.0048
G1 X105.49 Y126.916 E.00565
G1 X105.49 Y125.507 E.0442
G1 X105.466 Y125.328 E.00565
G1 X105.408 Y125.186 E.0048
G1 X105.315 Y125.065 E.0048
G1 X105.193 Y124.972 E.0048
G1 X105.052 Y124.913 E.0048
G1 X104.873 Y124.89 E.00565
G1 X96.373 Y124.89 E.26651
G1 X96.034 Y124.845 E.01072
G1 X95.693 Y124.704 E.01157
G1 X95.4 Y124.479 E.01157
G1 X95.176 Y124.186 E.01157
G1 X95.035 Y123.846 E.01157
G1 X94.99 Y123.507 E.01072
G1 X94.99 Y122.952 E.01737
G1 X95.036 Y122.613 E.01074
G1 X95.18 Y122.271 E.01164
G1 X95.415 Y121.984 E.01163
G1 X95.72 Y121.769 E.01169
G1 X96.075 Y121.667 E.01158
G1 X101.698 Y121.668 E.1763
G1 X101.759 Y122.559 E.028
M204 S1000
G1 X102 Y122.297 F10800
;WIPE_START
G1 F8640
G1 X102.331 Y122.667 E-.13454
G1 X103.239 Y122.668 E-.2096
G1 X103.901 Y122.631 E-.15307
G1 X104.042 Y122.235 E-.09708
G1 X104.236 Y121.525 E-.16995
G1 X104.932 Y121.928 E-.18577
;WIPE_END
G1 E-.05 F2100
M73 Q0 S123
G1 Z.4 F720
G1 X107.222 Y130.246 F10800
G1 Z.2 F720
G1 E1 F2100
M204 S800
;TYPE:Perimeter
G1 F1200
G1 X106.508 Y132.893 E.08596
G1 X106.368 Y133.233 E.01152
G1 X106.176 Y133.483 E.00987
G1 X105.926 Y133.674 E.00987
G1 X105.636 Y133.795 E.00987
G1 X105.272 Y133.843 E.0115
G1 X104.187 Y133.843 E.03401
G1 X104.187 Y133.817 E.00081
G1 X104.884 Y133.817 E.02186
G1 X105.167 Y133.779 E.00896
G1 X105.479 Y133.65 E.01059
G1 X105.747 Y133.445 E.01059
G1 X105.953 Y133.177 E.01059
G1 X106.062 Y132.913 E.00896
G1 X106.349 Y131.826 E.03522
G1 X106.385 Y131.536 E.00917
G1 X106.327 Y131.191 E.01097
G1 X106.18 Y130.888 E.01055
G1 X105.964 Y130.631 E.01051
G1 X105.889 Y130.582 E.00283
G1 X106.92 Y130.315 E.03339
G1 X107.251 Y130.161 E.01146
G1 X107.241 Y130.189 E.00096
M204 S1000
;WIPE_START
G1 F8640
G1 X106.508 Y132.893 E-.64686
G1 X106.368 Y133.233 E-.08482
G1 X106.176 Y133.483 E-.0727
G1 X105.926 Y133.674 E-.0727
G1 X105.636 Y133.795 E-.0727
G1 X105.635 Y133.795 E-.00021
;WIPE_END
G1 E-.05 F2100
G1 Z.4 F720
G1 X104.5 Y87.598 F10800
G1 Z.2 F720
G1 E1 F2100
M204 S800
G1 F1200
G1 X104.304 Y86.867 E.02372
G1 X104.613 Y86.867 E.00968
G1 X104.613 Y87.176 E.0097
G1 X104.516 Y87.54 E.0118
M204 S1000
;WIPE_START
G1 F8640
G1 X104.304 Y86.867 E-.16283
G1 X104.613 Y86.867 E-.07128
G1 X104.613 Y87.176 E-.07142
G1 X104.516 Y87.54 E-.08689
;WIPE_END
G1 E-.60758 F2100
G1 Z.4 F720
G1 X104.516 Y86.49 F10800
G1 Z.2 F720
G1 E1 F2100
M204 S800
;TYPE:External perimeter
G1 F1200
G1 X101.581 Y86.49 E.09202
G1 X101.581 Y90.307 E.11968
G1 X101.543 Y90.594 E.00908
G1 X101.421 Y90.887 E.00994
G1 X101.228 Y91.138 E.00993
G1 X100.977 Y91.33 E.00994
G1 X100.684 Y91.45 E.00992
G1 X100.397 Y91.488 E.00906
G1 X97.19 Y91.49 E.10056
G1 X97.19 Y75.42 E.50387
G1 X99.243 Y75.421 E.06436
G1 X99.529 Y75.459 E.00905
G1 X99.822 Y75.579 E.00992
G1 X100.073 Y75.772 E.00994
G1 X100.25 Y76.001 E.00908
G1 X104.428 Y83.237 E.26197
G1 X104.512 Y83.421 E.00634
G1 X104.563 Y83.613 E.00622
G1 X104.581 Y83.8 E.00589
G1 X104.576 Y86.49 E.08434
M204 S1000
G1 X104.513 Y86.89 F10800
;WIPE_START
G1 F8640
G1 X101.581 Y86.49 E-.69155
G1 X101.581 Y87.609 E-.25845
;WIPE_END
G1 E-.05 F2100
G1 Z.4 F720
G1 X96.813 Y75.042 F10800
G1 Z.2 F720
G1 E1 F2100
M204 S800
;TYPE:Perimeter
G1 F1200
G1 X96.813 Y91.867 E.52754
G1 X97.403 Y91.867 E.0185
G1 X97.281 Y91.96 E.00483
G1 X97.023 Y92.296 E.01326
G1 X96.861 Y92.687 E.01326
G1 X96.806 Y93.106 E.01326
G1 X96.861 Y93.526 E.01326
G1 X97.023 Y93.917 E.01326
G1 X97.281 Y94.252 E.01326
G1 X97.616 Y94.51 E.01326
G1 X98.007 Y94.672 E.01326
G1 X98.427 Y94.727 E.01326
G1 X98.795 Y94.679 E.01163
G1 X103.504 Y93.417 E.15286
G1 X107.348 Y93.417 E.12055
G1 X107.453 Y93.431 E.00332
G1 X107.546 Y93.484 E.00335
G1 X107.599 Y93.576 E.00335
G1 X107.613 Y93.681 E.00332
G1 X107.613 Y95.578 E.05947
G1 X107.579 Y95.733 E.00497
G1 X107.503 Y95.808 E.00335
G1 X107.348 Y95.843 E.00497
G1 X103.296 Y95.843 E.12705
G1 X99.584 Y96.837 E.1205
G1 X98.955 Y97.071 E.02103
G1 X98.349 Y97.436 E.02219
G1 X98.089 Y97.669 E.01095
G1 X97.821 Y97.908 E.01124
G1 X97.39 Y98.469 E.02219
G1 X97.071 Y99.101 E.02219
G1 X96.876 Y99.781 E.02219
G1 X96.813 Y100.449 E.02103
G1 X96.813 Y108.81 E.26217
G1 X96.876 Y109.478 E.02103
G1 X97.071 Y110.158 E.02219
G1 X97.39 Y110.79 E.02219
G1 X97.821 Y111.352 E.02219
G1 X98.349 Y111.823 E.02219
G1 X98.955 Y112.189 E.02219
G1 X99.584 Y112.422 E.02103
G1 X103.296 Y113.417 E.1205
G1 X107.348 Y113.417 E.12705
G1 X107.503 Y113.451 E.00497
G1 X107.579 Y113.527 E.00335
G1 X107.613 Y113.681 E.00497
G1 X107.613 Y115.578 E.05947
G1 X107.599 Y115.683 E.00332
G1 X107.546 Y115.775 E.00335
G1 X107.453 Y115.829 E.00335
G1 X107.348 Y115.843 E.00332
G1 X103.504 Y115.843 E.12055
G1 X99.013 Y114.639 E.14578
G1 X98.6 Y114.585 E.01305
G1 X98.136 Y114.646 E.01468
G1 X97.703 Y114.825 E.01468
G1 X97.332 Y115.11 E.01468
G1 X97.046 Y115.482 E.01468
G1 X96.867 Y115.915 E.01468
G1 X96.813 Y116.327 E.01305
G1 X96.813 Y117.928 E.05019
G1 X96.779 Y118.083 E.00497
G1 X96.746 Y118.125 E.00169
G1 X96.653 Y118.179 E.00335
G1 X96.297 Y118.17 E.01117
G1 X95.846 Y118.256 E.0144
G1 X95.431 Y118.453 E.0144
G1 X95.08 Y118.75 E.0144
G1 X94.816 Y119.126 E.01441
G1 X94.656 Y119.557 E.01441
G1 X94.611 Y120.015 E.01443
G1 X94.685 Y120.47 E.01446
G1 X94.877 Y120.896 E.01466
G1 X95.18 Y121.253 E.01468
G1 X95.494 Y121.468 E.01191
G1 X95.156 Y121.705 E.01295
G1 X94.854 Y122.075 E.01496
G1 X94.669 Y122.513 E.01492
G1 X94.613 Y122.927 E.0131
G1 X94.613 Y123.531 E.01894
G1 X94.667 Y123.944 E.01305
G1 X94.846 Y124.377 E.01468
G1 X95.132 Y124.748 E.01468
G1 X95.503 Y125.033 E.01468
G1 X95.936 Y125.212 E.01468
G1 X96.348 Y125.267 E.01305
G1 X104.848 Y125.267 E.26651
G1 X104.953 Y125.281 E.00332
G1 X105.003 Y125.301 E.00169
G1 X105.079 Y125.377 E.00335
G1 X105.113 Y125.531 E.00497
G1 X105.113 Y126.891 E.04265
G1 X105.099 Y126.996 E.00332
G1 X105.046 Y127.089 E.00335
G1 X104.905 Y127.162 E.00497
G1 X96.888 Y129.31 E.26026
G1 X96.503 Y129.47 E.01305
G1 X96.132 Y129.755 E.01468
G1 X95.846 Y130.126 E.01468
G1 X95.667 Y130.559 E.01468
G1 X95.606 Y131.023 E.01468
G1 X95.667 Y131.488 E.01468
G1 X95.846 Y131.92 E.01468
G1 X96.132 Y132.292 E.0147
G1 X96.505 Y132.577 E.01472
G1 X96.942 Y132.756 E.01481
G1 X97.415 Y132.811 E.01493
G1 X97.512 Y132.795 E.00308
G1 X97.194 Y133.191 E.01594
G1 X96.904 Y133.888 E.02364
G1 X96.813 Y134.578 E.02184
G1 X96.813 Y143.162 E.26914
G1 X87.987 Y143.162 E.27673
G1 X87.987 Y66.838 E2.39308
G1 X96.813 Y66.838 E.27673
G1 X96.813 Y74.982 E.25535
M204 S1000
G1 X97.19 Y75.04 F10800
M204 S800
;TYPE:External perimeter
G1 F1200
G1 X99.219 Y75.039 E.06362
G1 X99.655 Y75.097 E.0138
G1 X100.038 Y75.256 E.013
G1 X100.367 Y75.508 E.01299
G1 X100.636 Y75.858 E.01384
G1 X104.768 Y83.015 E.25913
G1 X104.893 Y83.283 E.00924
G1 X104.964 Y83.55 E.00868
G1 X104.99 Y83.844 E.00925
G1 X104.99 Y87.226 E.10604
G1 X104.549 Y88.87 E.05336
G1 X104.451 Y88.87 E.0031
G1 X103.915 Y86.87 E.06492
G1 X101.99 Y86.87 E.06034
G1 X101.99 Y90.253 E.10608
G1 X101.932 Y90.69 E.01384
G1 X101.774 Y91.073 E.01299
G1 X101.522 Y91.402 E.01299
G1 X101.193 Y91.654 E.01299
G1 X100.81 Y91.813 E.013
G1 X100.374 Y91.87 E.0138
G1 X98.4 Y91.87 E.06189
G1 X98.106 Y91.908 E.0093
G1 X97.807 Y92.032 E.01015
G1 X97.55 Y92.229 E.01015
G1 X97.353 Y92.486 E.01015
G1 X97.229 Y92.785 E.01015
G1 X97.186 Y93.106 E.01015
G1 X97.229 Y93.427 E.01015
G1 X97.353 Y93.727 E.01015
G1 X97.55 Y93.983 E.01015
G1 X97.807 Y94.181 E.01015
G1 X98.106 Y94.304 E.01015
G1 X98.427 Y94.347 E.01015
G1 X98.721 Y94.308 E.0093
G1 X103.454 Y93.04 E.15364
G1 X107.373 Y93.04 E.12288
G1 X107.552 Y93.063 E.00565
G1 X107.693 Y93.122 E.0048
G1 X107.815 Y93.215 E.0048
G1 X107.908 Y93.336 E.0048
G1 X107.966 Y93.478 E.0048
G1 X107.99 Y93.657 E.00565
G1 X107.99 Y95.603 E.06102
G1 X107.966 Y95.781 E.00565
G1 X107.908 Y95.923 E.0048
G1 X107.815 Y96.044 E.0048
G1 X107.693 Y96.138 E.0048
G1 X107.552 Y96.196 E.0048
G1 X107.373 Y96.22 E.00565
G1 X103.346 Y96.22 E.12627
G1 X99.699 Y97.197 E.11839
G1 X99.12 Y97.412 E.01937
G1 X98.574 Y97.741 E.01997
G1 X98.34 Y97.95 E.00984
G1 X98.099 Y98.165 E.01013
G1 X97.711 Y98.671 E.01998
G1 X97.424 Y99.239 E.01998
G1 X97.248 Y99.852 E.01998
G1 X97.19 Y100.467 E.01937
G1 X97.19 Y108.793 E.26106
G1 X97.248 Y109.408 E.01937
G1 X97.424 Y110.02 E.01998
G1 X97.711 Y110.589 E.01998
G1 X98.099 Y111.094 E.01997
G1 X98.574 Y111.519 E.01998
G1 X99.12 Y111.848 E.01997
G1 X99.699 Y112.062 E.01937
G1 X103.346 Y113.04 E.11839
G1 X107.373 Y113.04 E.12627
G1 X107.552 Y113.063 E.00565
G1 X107.693 Y113.122 E.0048
G1 X107.815 Y113.215 E.0048
G1 X107.908 Y113.336 E.0048
G1 X107.966 Y113.478 E.0048
G1 X107.99 Y113.657 E.00565
G1 X107.99 Y115.603 E.06102
G1 X107.966 Y115.781 E.00565
G1 X107.908 Y115.923 E.0048
G1 X107.815 Y116.044 E.0048
G1 X107.693 Y116.138 E.0048
G1 X107.552 Y116.196 E.0048
G1 X107.373 Y116.22 E.00565
G1 X103.454 Y116.22 E.12288
G1 X98.939 Y115.01 E.14656
G1 X98.6 Y114.965 E.01072
G1 X98.234 Y115.013 E.01157
G1 X97.893 Y115.155 E.01157
G1 X97.6 Y115.379 E.01157
G1 X97.376 Y115.672 E.01157
G1 X97.235 Y116.013 E.01157
G1 X97.19 Y116.352 E.01072
G1 X97.19 Y117.953 E.05019
G1 X97.166 Y118.131 E.00565
G1 X97.108 Y118.273 E.0048
G1 X97.015 Y118.394 E.0048
G1 X96.893 Y118.488 E.0048
G1 X96.752 Y118.546 E.0048
G1 X96.587 Y118.568 E.0052
G1 X96.32 Y118.549 E.0084
G1 X95.964 Y118.617 E.01135
G1 X95.637 Y118.773 E.01135
G1 X95.361 Y119.006 E.01135
G1 X95.153 Y119.303 E.01135
G1 X95.027 Y119.642 E.01135
G1 X94.991 Y120.003 E.01136
G1 X95.05 Y120.36 E.01137
G1 X95.199 Y120.693 E.01143
G1 X95.434 Y120.97 E.01141
G1 X95.737 Y121.177 E.01148
G1 X96.086 Y121.273 E.01135
G1 X101.393 Y121.281 E.1664
G1 X102.029 Y121.329 E.02
G1 X102.104 Y122.291 E.03027
G1 X103.638 Y122.291 E.04809
G1 X103.79 Y121.737 E.01801
G1 X103.937 Y121.335 E.01343
G1 X104.342 Y121.302 E.01273
G1 X104.582 Y121.304 E.00752
G1 X107.228 Y122.817 E.09557
G1 X107.595 Y123.097 E.01446
G1 X107.732 Y123.272 E.00699
G1 X107.861 Y123.444 E.00674
G1 X108.03 Y123.852 E.01384
G1 X108.089 Y124.308 E.01443
G1 X108.089 Y128.599 E.13452
G1 X108.058 Y128.911 E.00983
G1 X108.03 Y129.049 E.00444
G1 X107.583 Y130.357 E.04332
G1 X106.866 Y133.015 E.08633
G1 X106.697 Y133.423 E.01384
G1 X106.445 Y133.752 E.01299
G1 X106.117 Y134.004 E.01299
G1 X105.734 Y134.162 E.01299
G1 X105.297 Y134.22 E.01384
G1 X103.81 Y134.22 E.04661
G1 X103.81 Y133.44 E.02446
G1 X104.859 Y133.44 E.0329
G1 X105.069 Y133.412 E.00663
G1 X105.289 Y133.321 E.00748
G1 X105.479 Y133.176 E.00748
G1 X105.624 Y132.986 E.00748
G1 X105.705 Y132.791 E.00663
G1 X105.887 Y132.111 E.02209
G1 X105.978 Y131.756 E.01147
G1 X106.004 Y131.545 E.00669
G1 X105.964 Y131.307 E.00757
G1 X105.861 Y131.095 E.00738
G1 X105.711 Y130.916 E.00732
G1 X105.512 Y130.785 E.00748
G1 X105.285 Y130.724 E.00735
G1 X105.073 Y130.729 E.00665
G1 X104.899 Y130.762 E.00556
G1 X99.041 Y132.332 E.19015
G1 X98.478 Y132.525 E.01867
G1 X97.929 Y132.877 E.02045
G1 X97.521 Y133.386 E.02045
G1 X97.271 Y133.986 E.02041
G1 X97.19 Y134.603 E.0195
G1 X97.19 Y143.539 E.28019
G1 X87.61 Y143.539 E.30037
G1 X87.61 Y66.461 E2.41673
G1 X97.19 Y66.461 E.30037
M73 P0 R122
G1 X97.19 Y74.98 E.2671
M204 S1000
G1 X97.301 Y75.424 F10800
;WIPE_START
G1 F8640
G1 X99.219 Y75.039 E-.46873
G1 X99.655 Y75.097 E-.10161
G1 X100.038 Y75.256 E-.09574
G1 X100.367 Y75.508 E-.09567
G1 X100.636 Y75.858 E-.10189
G1 X100.823 Y76.182 E-.08636
;WIPE_END
G1 E-.05 F2100
G1 Z.4 F720
G1 X95.933 Y66.951 F10800
G1 Z.2 F720
G1 E1 F2100
M204 S800
;TYPE:Solid infill
;WIDTH:0.422308
G1 F1200
G1 X96.53 Y67.549 E.02666
G1 X96.53 Y68.085 E.01693
G1 X95.566 Y67.121 E.04302
G1 X95.029 Y67.121 E.01693
G1 X96.53 Y68.622 E.06696
G1 X96.53 Y69.158 E.01693
G1 X94.493 Y67.121 E.09089
G1 X93.956 Y67.121 E.01693
G1 X96.53 Y69.695 E.11483
G1 X96.53 Y70.231 E.01693
G1 X93.42 Y67.121 E.13877
G1 X92.883 Y67.121 E.01693
G1 X96.53 Y70.768 E.1627
G1 X96.53 Y71.304 E.01693
G1 X92.347 Y67.121 E.18664
G1 X91.81 Y67.121 E.01693
G1 X96.53 Y71.841 E.21058
G1 X96.53 Y72.377 E.01693
G1 X91.274 Y67.121 E.23451
G1 X90.737 Y67.121 E.01693
G1 X96.53 Y72.914 E.25845
G1 X96.53 Y73.45 E.01693
G1 X90.2 Y67.121 E.28239
G1 X89.664 Y67.121 E.01693
G1 X96.53 Y73.987 E.30632
G1 X96.53 Y74.524 E.01693
G1 X89.127 Y67.121 E.33026
G1 X88.591 Y67.121 E.01693
G1 X96.53 Y75.06 E.3542
G1 X96.53 Y75.597 E.01693
G1 X88.27 Y67.336 E.36852
G1 X88.27 Y67.873 E.01693
G1 X96.53 Y76.133 E.36852
G1 X96.53 Y76.67 E.01693
G1 X88.27 Y68.409 E.36852
G1 X88.27 Y68.946 E.01693
