; generated by PrusaSlicer 2.3.0+linux-x64 on 2021-09-02 at 16:02:48 UTC

; 

; external perimeters extrusion width = 0.42mm
; perimeters extrusion width = 0.42mm
; infill extrusion width = 0.60mm
; solid infill extrusion width = 0.60mm
; top infill extrusion width = 0.42mm
; first layer extrusion width = 0.60mm

M127
;TYPE:Custom
;- - - Custom G-code for left extruder printing with FlashForge Creator Pro - - -
;- - - by DrLex; 2016/09-2019/04. Released under Creative Commons Attribution License. - - -
;- - - Modified by rpavlik for Replicator 2x; 2019/10 - - -
; IMPORTANT: ensure your home offsets are correctly set. The Y home offset is correct if
;   the initial extrusion performed by this code is at 3mm from the front edge of the bed.
; IMPORTANT: ensure "Use relative E distances" is enabled in Printer settings.
;
;SUMMARY
;
;first layer temperature = 230C
;temperature = 230C
;first layer bed temperature = 110C
;bed temperature = 105C
;
;bottom solid layers = 2
;top solid layers = 2
;perimeters = 2
;seam position = nearest
;
;layer height = 0.2mm
;first layer height = 0.21mm
;z_offset = 0mm
;fill density = 100%
;fill pattern = rectilinear
;infill only where needed = 0
;
;skirts = 1
;brim width = 0mm
;raft layers = 0
;support material = 0
;support material threshold = 20 degrees
;support material enforced for first n layers = 0
;support material extruder = 1
;
;first layer speed = 40
;perimeter speed = 60mm/s
;small perimeter speed = 20
;external perimeter speed = 50%
;infill speed = 80mm/s
;solid infill speed = 40
;top solid infill speed = 30
;support material speed = 80mm/s
;gap fill speed = 20mm/s
;travel speed = 130mm/s
;bridge speed = 60mm/s
;bridge flow ratio = 1
;slowdown if layer time is less than = 4secs
;minimum print speed = 10mm/s
;
;
;EXTRUSION
;
;filament diameter = 1.77mm
;nozzle diameter = 0.4mm
;bridge flow ratio = 1
;extrusion axis = E
;extrusion multiplier = 1.06
;extrusion width = 0.6mm
;first layer extrusion width = 0.6mm
;perimeter extrusion width = 0.42mm
;infill extrusion width = 0mm
;solid infill extrusion width = 0mm
;top infill extrusion width = 0.42mm
;support material extrusion width = 0mm
;
;
;SUPPORT
;
;raft layers = 0
;brim width = 0mm
;support material = 0
;support material threshold = 20 degrees
;support material enforced for first n layers = 0
;support material extruder = 1
;support material extrusion width = 0mm
;support material interface layers = 3
;support material interface spacing = 0mm
;support material pattern = rectilinear
;support material angle = 0 degrees
;support material spacing = 0.8mm
;support material speed = 80mm/s
;
;
;OTHER (see end of file for all parameters)
;
;complete objects = 0
;cooling enabled = 1
;disable fan for first layers = 2
;duplicate distance = 6mm
;external perimeters first = 0
;extra perimeters = 1
;extruder clearance height = 20mm
;extruder clearance radius = 20mm
;extruder offset = 0,0mm
;fan always on = 0
;fan below layer time = 11secs
;fill angle = 45 degrees
;gcode comments = 0
;gcode flavor = sailfish
;infill every n layers = 1
;infill extruder = 1
;infill first = 0
;minimum skirt length = 10mm
;only retract when crossing perimeters = 1
;perimeter extruder = 1
;retract before travel = 2
;retract on layer change = 0
;retract length = 1mm
;retract length on tool change = 4mm
;retract lift = 0
;retract extra distance on restart = 0mm
;retract extra on tool change = 0mm
;retract speed = 25mm/s
;skirt distance = 5mm
;skirt height = 1 layers
;solid infill below area = 50mm (sq)
;solid infill every n layers = 0
;
;- - - - - - - - - - - - - - - - - - - - - - - - -

T0; start with the right extruder. We will switch to T1 after having moved the print head to provide enough space for the nozzle offset.
M73 P0; enable show build progress
M140 S110; heat bed up to first layer temperature
M104 S140 T1; preheat nozzle to 140 degrees, this should not cause oozing
M127; disable fan
G21; set units to mm
M320; acceleration enabled for all commands that follow
G162 X Y F8400; home XY axes maximum
G161 Z F1500; roughly home Z axis minimum
G92 X118 Y72.5 Z0 E0 B0; set (rough) reference point (also set E and B to make GPX happy). This will be overridden by the M132 below but ensures correct visualisation in some programs.
G1 Z5 F1500; move the bed down again
G4 P0; Wait for command to finish
G161 Z F100; accurately home Z axis minimum
M132 X Y Z A B; Recall stored home offsets (accurate reference point which you can configure in the printer's LCD menu).
G90; set positioning to absolute
M83; use relative E coordinates
G1 Z20 F1500; move Z to waiting height
G1 X140 Y65 F1500; do a slow small move to allow acceleration to be gently initialised
G1 X70 Y-75 F5400; move to waiting position (front right corner of print bed), also makes room for the tool change
; In theory, Sailfish should combine the T1 with the next move. I have tried to make this work many times and I found it extremely unreliable, therefore I force an explicit tool swap as follows.
G1 F4000; set speed for tool change, keep it low because not accelerated.
T1; switch to the left extruder
G4 P0; flush pipeline
M18 A B; disable extruder steppers while heating
M190 S110; Wait for bed to heat up. Leave extruder at 140C, to avoid cooking the filament.
M104 S230 T1; set nozzle heater to first layer temperature
M116; wait for everything to reach target temperature
M17 B; re-enable left extruder stepper
G1 Z0 F1000
G1 X70 Y-74 F4000; chop off any ooze on the front of the bed
G1 Z0.21 F1500; move to first layer height
G1 X-121 E24 F2000; extrude a line of filament across the front edge of the bed (3mm from the front edge)
; Note how we extrude a little beyond the bed, this produces a tiny loop that makes it easier to remove the extruded strip.
G1 Y-71 F2000
G1 X-108 Y-74 F4000; cross the extruded line to close the loop
G1 X-100 F4000; wipe across the line (X direction)
G1 X-90 Y-75 F6000; Move back for an additional wipe (Y direction)
;G92 E-0.6; This no longer works with relative E. The purpose was to compensate for the inexplicable but consistent under-extrusion that occurs at the start of the skirt. This compensation must now be done in a post-processing script.
G1 F8400; in case Slic3r would not override this, ensure fast travel to first print move
M73 P1 ;@body (notify GPX body has started)
;- - - End custom G-code for left extruder printing - - -
G21 ; set units to millimeters
G90 ; use absolute coordinates
M83; POSTPROCESS workaround for relative E in gcode.ws
; Filament gcode
;LAYER_CHANGE
;Z:0.21
;HEIGHT:0.21
M73 P0
G1 Z0.210 F7800.000
G1 E-1.00000 F1500.000
G1 X-10.300 Y38.838 F7800.000
G1 E1.00000 F1500.000
;TYPE:Skirt
;WIDTH:0.6
G1 F2400.000
G1 X-11.416 Y37.937 E0.07200
G1 X-21.301 Y26.532 E0.75771
G1 X-21.821 Y25.691 E0.04963
G1 X-22.311 Y24.518 E0.06382
G1 X-23.521 Y20.049 E0.23246
G1 X-23.755 Y18.218 E0.09267
G1 X-23.755 Y-16.804 E1.75821
G1 X-23.664 Y-17.852 E0.05277
G1 X-23.489 Y-18.647 E0.04089
G1 X-20.242 Y-29.336 E0.56084
G1 X-12.474 Y-48.360 E1.03159
G1 X-11.788 Y-49.506 E0.06707
G1 X-10.848 Y-50.455 E0.06707
G1 X-10.123 Y-50.942 E0.04380
G1 X-9.332 Y-51.308 E0.04380
G1 X-8.498 Y-51.545 E0.04351
G1 X-7.632 Y-51.650 E0.04380
G1 X18.206 Y-51.655 E1.29713
G1 X19.248 Y-51.555 E0.05254
G1 X20.252 Y-51.262 E0.05254
G1 X21.184 Y-50.785 E0.05254
G1 X22.010 Y-50.143 E0.05254
G1 X22.700 Y-49.356 E0.05254
G1 X23.231 Y-48.454 E0.05254
G1 X23.584 Y-47.469 E0.05254
G1 X23.745 Y-46.435 E0.05254
G1 X23.755 Y34.117 E4.04397
G1 X23.695 Y34.912 E0.04001
G1 X23.522 Y35.690 E0.04001
G1 X23.235 Y36.446 E0.04060
G1 X22.841 Y37.152 E0.04060
G1 X22.349 Y37.794 E0.04060
G1 X21.769 Y38.357 E0.04060
G1 X21.113 Y38.830 E0.04060
G1 X20.395 Y39.203 E0.04060
G1 X19.631 Y39.467 E0.04060
G1 X18.836 Y39.618 E0.04060
G1 X-7.441 Y39.655 E1.31920
G1 X-8.224 Y39.594 E0.03943
G1 X-8.990 Y39.422 E0.03943
G1 X-10.245 Y38.862 E0.06899
G1 E-1.00000 F1500.000
G1 X-14.042 Y11.114 F7800.000
G1 E1.00000 F1500.000
;TYPE:External perimeter
G1 F2400.000
G1 X-13.737 Y12.251 E0.05913
G1 X-11.500 Y12.251 E0.11231
G1 X-11.500 Y11.251 E0.05020
G1 X-6.180 Y11.251 E0.26706
G1 X-5.863 Y11.293 E0.01608
G1 X-5.549 Y11.423 E0.01707
G1 X-5.279 Y11.630 E0.01707
G1 X-5.072 Y11.900 E0.01707
G1 X-4.942 Y12.214 E0.01707
G1 X-4.899 Y12.538 E0.01642
G1 X-4.937 Y13.376 E0.04211
G1 X-5.072 Y13.703 E0.01773
G1 X-5.279 Y13.972 E0.01707
G1 X-5.549 Y14.179 E0.01707
G1 X-5.863 Y14.310 E0.01707
G1 X-6.180 Y14.351 E0.01608
G1 X-14.680 Y14.351 E0.42673
G1 X-14.881 Y14.378 E0.01014
G1 X-15.049 Y14.447 E0.00914
G1 X-15.193 Y14.558 E0.00914
G1 X-15.304 Y14.703 E0.00914
G1 X-15.367 Y14.855 E0.00828
G1 X-15.400 Y16.498 E0.08250
G1 X-15.374 Y16.695 E0.00999
G1 X-15.304 Y16.863 E0.00914
G1 X-15.193 Y17.008 E0.00914
G1 X-15.049 Y17.119 E0.00914
G1 X-14.862 Y17.196 E0.01014
G1 X-6.845 Y19.344 E0.41671
G1 X-6.549 Y19.467 E0.01608
G1 X-6.279 Y19.674 E0.01707
G1 X-6.072 Y19.944 E0.01707
G1 X-5.942 Y20.258 E0.01707
G1 X-5.897 Y20.595 E0.01707
G1 X-5.942 Y20.932 E0.01707
G1 X-6.072 Y21.246 E0.01707
G1 X-6.279 Y21.516 E0.01707
G1 X-6.549 Y21.723 E0.01707
G1 X-6.863 Y21.853 E0.01707
G1 X-7.200 Y21.897 E0.01707
G1 X-7.517 Y21.856 E0.01608
G1 X-16.555 Y19.434 E0.46974
G1 X-16.851 Y19.311 E0.01608
G1 X-17.121 Y19.104 E0.01707
G1 X-17.328 Y18.835 E0.01707
G1 X-17.458 Y18.520 E0.01707
G1 X-17.500 Y18.203 E0.01608
G1 X-17.500 Y13.841 E0.21898
G1 X-17.458 Y13.524 E0.01608
G1 X-17.328 Y13.209 E0.01707
G1 X-17.121 Y12.940 E0.01707
G1 X-16.867 Y12.745 E0.01608
G1 X-14.094 Y11.144 E0.16076
G1 X-13.667 Y10.975 F7800.000
G1 E-1.00000 F1500.000
G1 X-16.923 Y19.910 F7800.000
G1 E1.00000 F1500.000
;TYPE:Perimeter
G1 F2400.000
G1 X-15.882 Y20.189 E0.05408
G1 X-16.110 Y20.486 E0.01878
G1 X-16.312 Y21.238 E0.03909
G1 X-16.567 Y21.238 E0.01283
G1 X-16.907 Y19.968 E0.06600
G1 E-1.00000 F1500.000
G1 X-14.825 Y16.611 F7800.000
G1 E1.00000 F1500.000
G1 F2400.000
G1 X-14.844 Y16.467 E0.00727
G1 X-14.814 Y14.929 E0.07725
G1 X-14.644 Y14.906 E0.00859
G1 X-6.144 Y14.906 E0.42673
G1 X-5.718 Y14.850 E0.02157
G1 X-5.269 Y14.664 E0.02441
G1 X-4.883 Y14.368 E0.02441
G1 X-4.587 Y13.982 E0.02441
G1 X-4.387 Y13.499 E0.02630
G1 X-4.343 Y12.514 E0.04946
G1 X-4.401 Y12.069 E0.02254
G1 X-4.587 Y11.620 E0.02441
G1 X-4.883 Y11.234 E0.02441
G1 X-5.137 Y11.040 E0.01605
G1 X-4.907 Y10.868 E0.01441
G1 X-4.610 Y10.495 E0.02394
G1 X-4.418 Y10.058 E0.02394
G1 X-4.343 Y9.587 E0.02394
G1 X-4.390 Y9.113 E0.02394
G1 X-4.556 Y8.666 E0.02394
G1 X-4.830 Y8.275 E0.02394
G1 X-5.194 Y7.967 E0.02394
G1 X-5.666 Y7.743 E0.02623
G1 X-6.522 Y7.671 E0.04313
G1 X-6.546 Y7.488 E0.00928
G1 X-6.582 Y5.514 E0.09909
G1 X-6.787 Y5.019 E0.02689
G1 X-7.083 Y4.634 E0.02441
G1 X-7.469 Y4.338 E0.02441
G1 X-7.918 Y4.152 E0.02441
G1 X-8.400 Y4.088 E0.02441
G1 X-8.826 Y4.144 E0.02157
G1 X-13.313 Y5.346 E0.23319
G1 X-17.144 Y5.346 E0.19235
G1 X-17.322 Y5.323 E0.00900
G1 X-17.345 Y5.145 E0.00900
G1 X-17.345 Y3.257 E0.09478
G1 X-17.322 Y3.080 E0.00900
G1 X-17.144 Y3.056 E0.00900
G1 X-13.087 Y3.056 E0.20365
G1 X-9.364 Y2.058 E0.19354
G1 X-8.726 Y1.822 E0.03416
G1 X-8.109 Y1.450 E0.03617
G1 X-7.571 Y0.970 E0.03617
G1 X-7.133 Y0.398 E0.03617
G1 X-6.808 Y-0.245 E0.03617
G1 X-6.609 Y-0.937 E0.03617
G1 X-6.545 Y-1.615 E0.03416
G1 X-6.545 Y-9.983 E0.42009
G1 X-6.609 Y-10.660 E0.03416
G1 X-6.808 Y-11.352 E0.03617
G1 X-7.128 Y-11.986 E0.03561
G1 X-7.570 Y-12.566 E0.03666
G1 X-8.109 Y-13.047 E0.03624
G1 X-8.726 Y-13.419 E0.03617
G1 X-9.364 Y-13.656 E0.03416
G1 X-13.087 Y-14.654 E0.19354
G1 X-17.144 Y-14.654 E0.20365
G1 X-17.322 Y-14.677 E0.00900
G1 X-17.345 Y-14.855 E0.00900
G1 X-17.345 Y-16.743 E0.09478
G1 X-17.322 Y-16.920 E0.00900
G1 X-17.144 Y-16.944 E0.00900
G1 X-13.310 Y-16.944 E0.19247
G1 X-8.224 Y-15.611 E0.26395
G1 X-7.371 Y-15.839 E0.04436
G1 X-6.744 Y-16.466 E0.04448
G1 X-6.530 Y-17.265 E0.04152
G1 X-6.603 Y-17.816 E0.02791
G1 X-6.994 Y-18.494 E0.03928
G1 X-6.545 Y-18.494 E0.02254
G1 X-6.545 Y-45.245 E1.34300
G1 X-3.855 Y-45.245 E0.13505
G1 X-3.855 Y33.245 E3.94044
G1 X-6.545 Y33.245 E0.13505
G1 X-6.545 Y24.145 E0.45684
G1 X-6.638 Y23.442 E0.03561
G1 X-6.931 Y22.734 E0.03845
G1 X-7.149 Y22.450 E0.01797
G1 X-6.718 Y22.394 E0.02181
G1 X-6.269 Y22.208 E0.02441
G1 X-5.883 Y21.912 E0.02441
G1 X-5.587 Y21.526 E0.02441
G1 X-5.401 Y21.077 E0.02441
G1 X-5.338 Y20.595 E0.02441
G1 X-5.401 Y20.113 E0.02441
G1 X-5.587 Y19.664 E0.02441
G1 X-5.883 Y19.278 E0.02441
G1 X-6.269 Y18.982 E0.02441
G1 X-6.666 Y18.818 E0.02157
G1 X-14.770 Y16.634 E0.42135
G1 E-1.00000 F1500.000
G1 X-7.100 Y-34.899 F7800.000
G1 E1.00000 F1500.000
;TYPE:External perimeter
G1 F2400.000
G1 X-7.100 Y-19.049 E0.79572
G1 X-10.210 Y-19.049 E0.15613
G1 X-10.726 Y-19.187 E0.02681
G1 X-11.132 Y-19.593 E0.02886
G1 X-11.271 Y-20.109 E0.02681
G1 X-11.271 Y-24.049 E0.19777
G1 X-14.271 Y-24.049 E0.15061
G1 X-14.271 Y-26.642 E0.13019
G1 X-14.143 Y-27.118 E0.02476
G1 X-9.949 Y-34.383 E0.42112
G1 X-9.571 Y-34.760 E0.02681
G1 X-9.055 Y-34.899 E0.02681
G1 X-7.160 Y-34.899 E0.09515
G1 X-6.700 Y-34.906 F7800.000
G1 X-7.160 Y-35.499
G1 F2400.000
G1 X-7.100 Y-35.499 E0.00301
G1 X-7.100 Y-45.800 E0.51716
G1 X-3.300 Y-45.800 E0.19077
G1 X-3.300 Y33.800 E3.99616
G1 X-7.100 Y33.800 E0.19077
G1 X-7.100 Y24.182 E0.48287
G1 X-7.178 Y23.587 E0.03012
G1 X-7.415 Y23.014 E0.03111
G1 X-7.793 Y22.523 E0.03111
G1 X-8.284 Y22.145 E0.03111
G1 X-8.839 Y21.916 E0.03014
G1 X-14.896 Y20.311 E0.31455
G1 X-15.280 Y20.414 E0.02000
G1 X-15.463 Y20.554 E0.01153
G1 X-15.603 Y20.736 E0.01153
G1 X-15.706 Y21.121 E0.02002
G1 X-15.340 Y22.487 E0.07097
G1 X-15.188 Y22.685 E0.01254
G1 X-14.844 Y22.883 E0.01994
G1 X-13.500 Y22.898 E0.06747
G1 X-13.500 Y23.901 E0.05037
G1 X-15.104 Y23.901 E0.08051
G1 X-15.563 Y23.841 E0.02324
G1 X-15.972 Y23.671 E0.02225
G1 X-16.324 Y23.402 E0.02225
G1 X-16.593 Y23.050 E0.02225
G1 X-16.771 Y22.622 E0.02324
G1 X-17.837 Y18.642 E0.20686
G1 X-17.900 Y18.164 E0.02424
G1 X-17.900 Y13.880 E0.21503
G1 X-17.840 Y13.422 E0.02321
G1 X-17.665 Y13.005 E0.02269
G1 X-17.400 Y12.660 E0.02182
G1 X-17.033 Y12.379 E0.02324
G1 X-14.388 Y10.851 E0.15335
G1 X-13.698 Y10.851 E0.03461
G1 X-13.430 Y11.851 E0.05197
G1 X-11.900 Y11.851 E0.07682
G1 X-11.900 Y10.832 E0.05118
G1 X-6.185 Y10.832 E0.28693
G1 X-5.873 Y10.792 E0.01577
G1 X-5.564 Y10.666 E0.01675
G1 X-5.297 Y10.467 E0.01675
G1 X-5.089 Y10.205 E0.01675
G1 X-4.955 Y9.900 E0.01675
G1 X-4.902 Y9.571 E0.01675
G1 X-4.935 Y9.239 E0.01675
G1 X-5.051 Y8.926 E0.01675
G1 X-5.243 Y8.653 E0.01675
G1 X-5.498 Y8.438 E0.01675
G1 X-5.813 Y8.287 E0.01755
G1 X-6.587 Y8.222 E0.03899
G1 X-6.749 Y8.155 E0.00878
G1 X-6.893 Y8.044 E0.00914
G1 X-7.004 Y7.900 E0.00914
G1 X-7.074 Y7.732 E0.00914
G1 X-7.100 Y7.529 E0.01027
G1 X-7.135 Y5.629 E0.09538
G1 X-7.272 Y5.299 E0.01794
G1 X-7.479 Y5.029 E0.01707
G1 X-7.749 Y4.822 E0.01707
G1 X-8.063 Y4.692 E0.01707
G1 X-8.400 Y4.648 E0.01707
G1 X-8.717 Y4.690 E0.01608
G1 X-13.239 Y5.901 E0.23503
G1 X-17.180 Y5.901 E0.19784
G1 X-17.381 Y5.875 E0.01014
G1 X-17.548 Y5.806 E0.00911
G1 X-17.696 Y5.691 E0.00936
G1 X-17.804 Y5.550 E0.00894
G1 X-17.874 Y5.382 E0.00914
G1 X-17.900 Y5.182 E0.01014
G1 X-17.900 Y3.221 E0.09843
G1 X-17.874 Y3.021 E0.01014
G1 X-17.804 Y2.853 E0.00914
G1 X-17.693 Y2.708 E0.00914
G1 X-17.549 Y2.597 E0.00914
G1 X-17.381 Y2.528 E0.00914
G1 X-17.180 Y2.501 E0.01014
G1 X-13.161 Y2.501 E0.20181
G1 X-9.532 Y1.529 E0.18857
G1 X-8.968 Y1.320 E0.03024
G1 X-8.440 Y1.001 E0.03095
G1 X-7.980 Y0.591 E0.03095
G1 X-7.605 Y0.102 E0.03095
G1 X-7.327 Y-0.449 E0.03095
G1 X-7.156 Y-1.041 E0.03095
G1 X-7.100 Y-1.641 E0.03024
G1 X-7.100 Y-9.957 E0.41748
G1 X-7.156 Y-10.556 E0.03024
G1 X-7.327 Y-11.149 E0.03095
G1 X-7.600 Y-11.690 E0.03043
G1 X-7.980 Y-12.188 E0.03143
G1 X-8.440 Y-12.599 E0.03097
G1 X-8.968 Y-12.917 E0.03095
G1 X-9.532 Y-13.127 E0.03024
G1 X-13.161 Y-14.099 E0.18857
G1 X-17.180 Y-14.099 E0.20181
G1 X-17.381 Y-14.125 E0.01014
G1 X-17.549 Y-14.195 E0.00914
G1 X-17.693 Y-14.306 E0.00914
G1 X-17.804 Y-14.450 E0.00914
G1 X-17.874 Y-14.618 E0.00914
G1 X-17.900 Y-14.818 E0.01014
G1 X-17.900 Y-16.779 E0.09843
G1 X-17.874 Y-16.979 E0.01014
