; generated by PrusaSlicer 2.3.0+linux-x64 on 2021-09-02 at 19:02:33 UTC

; 

; external perimeters extrusion width = 0.42mm
; perimeters extrusion width = 0.42mm
; infill extrusion width = 0.60mm
; solid infill extrusion width = 0.60mm
; top infill extrusion width = 0.42mm
; support material extrusion width = 0.60mm
; first layer extrusion width = 0.60mm

M127
;TYPE:Custom
;- - - Custom G-code for left extruder printing with FlashForge Creator Pro - - -
;- - - by DrLex; 2016/09-2019/04. Released under Creative Commons Attribution License. - - -
;- - - Modified by rpavlik for Replicator 2x; 2019/10 - - -
; IMPORTANT: ensure your home offsets are correctly set. The Y home offset is correct if
;   the initial extrusion performed by this code is at 3mm from the front edge of the bed.
; IMPORTANT: ensure "Use relative E distances" is enabled in Printer settings.
;
;SUMMARY
;
;first layer temperature = 230C
;temperature = 230C
;first layer bed temperature = 110C
;bed temperature = 105C
;
;bottom solid layers = 2
;top solid layers = 2
;perimeters = 2
;seam position = nearest
;
;layer height = 0.2mm
;first layer height = 0.21mm
;z_offset = 0mm
;fill density = 100%
;fill pattern = rectilinear
;infill only where needed = 0
;
;skirts = 1
;brim width = 0mm
;raft layers = 0
;support material = 1
;support material threshold = 20 degrees
;support material enforced for first n layers = 0
;support material extruder = 1
;
;first layer speed = 40
;perimeter speed = 60mm/s
;small perimeter speed = 20
;external perimeter speed = 50%
;infill speed = 80mm/s
;solid infill speed = 40
;top solid infill speed = 30
;support material speed = 80mm/s
;gap fill speed = 20mm/s
;travel speed = 130mm/s
;bridge speed = 60mm/s
;bridge flow ratio = 1
;slowdown if layer time is less than = 4secs
;minimum print speed = 10mm/s
;
;
;EXTRUSION
;
;filament diameter = 1.77mm
;nozzle diameter = 0.4mm
;bridge flow ratio = 1
;extrusion axis = E
;extrusion multiplier = 1.06
;extrusion width = 0.6mm
;first layer extrusion width = 0.6mm
;perimeter extrusion width = 0.42mm
;infill extrusion width = 0mm
;solid infill extrusion width = 0mm
;top infill extrusion width = 0.42mm
;support material extrusion width = 0mm
;
;
;SUPPORT
;
;raft layers = 0
;brim width = 0mm
;support material = 1
;support material threshold = 20 degrees
;support material enforced for first n layers = 0
;support material extruder = 1
;support material extrusion width = 0mm
;support material interface layers = 3
;support material interface spacing = 0mm
;support material pattern = rectilinear
;support material angle = 0 degrees
;support material spacing = 0.8mm
;support material speed = 80mm/s
;
;
;OTHER (see end of file for all parameters)
;
;complete objects = 0
;cooling enabled = 1
;disable fan for first layers = 2
;duplicate distance = 6mm
;external perimeters first = 0
;extra perimeters = 1
;extruder clearance height = 20mm
;extruder clearance radius = 20mm
;extruder offset = 0,0mm
;fan always on = 0
;fan below layer time = 11secs
;fill angle = 45 degrees
;gcode comments = 0
;gcode flavor = sailfish
;infill every n layers = 1
;infill extruder = 1
;infill first = 0
;minimum skirt length = 10mm
;only retract when crossing perimeters = 1
;perimeter extruder = 1
;retract before travel = 2
;retract on layer change = 0
;retract length = 1mm
;retract length on tool change = 4mm
;retract lift = 0
;retract extra distance on restart = 0mm
;retract extra on tool change = 0mm
;retract speed = 25mm/s
;skirt distance = 5mm
;skirt height = 1 layers
;solid infill below area = 50mm (sq)
;solid infill every n layers = 0
;
;- - - - - - - - - - - - - - - - - - - - - - - - -

T0; start with the right extruder. We will switch to T1 after having moved the print head to provide enough space for the nozzle offset.
M73 P0; enable show build progress
M140 S110; heat bed up to first layer temperature
M104 S140 T1; preheat nozzle to 140 degrees, this should not cause oozing
M127; disable fan
G21; set units to mm
M320; acceleration enabled for all commands that follow
G162 X Y F8400; home XY axes maximum
G161 Z F1500; roughly home Z axis minimum
G92 X118 Y72.5 Z0 E0 B0; set (rough) reference point (also set E and B to make GPX happy). This will be overridden by the M132 below but ensures correct visualisation in some programs.
G1 Z5 F1500; move the bed down again
G4 P0; Wait for command to finish
G161 Z F100; accurately home Z axis minimum
M132 X Y Z A B; Recall stored home offsets (accurate reference point which you can configure in the printer's LCD menu).
G90; set positioning to absolute
M83; use relative E coordinates
G1 Z20 F1500; move Z to waiting height
G1 X140 Y65 F1500; do a slow small move to allow acceleration to be gently initialised
G1 X70 Y-75 F5400; move to waiting position (front right corner of print bed), also makes room for the tool change
; In theory, Sailfish should combine the T1 with the next move. I have tried to make this work many times and I found it extremely unreliable, therefore I force an explicit tool swap as follows.
G1 F4000; set speed for tool change, keep it low because not accelerated.
T1; switch to the left extruder
G4 P0; flush pipeline
M18 A B; disable extruder steppers while heating
M190 S110; Wait for bed to heat up. Leave extruder at 140C, to avoid cooking the filament.
M104 S230 T1; set nozzle heater to first layer temperature
M116; wait for everything to reach target temperature
M17 B; re-enable left extruder stepper
G1 Z0 F1000
G1 X70 Y-74 F4000; chop off any ooze on the front of the bed
G1 Z0.21 F1500; move to first layer height
G1 X-121 E24 F2000; extrude a line of filament across the front edge of the bed (3mm from the front edge)
; Note how we extrude a little beyond the bed, this produces a tiny loop that makes it easier to remove the extruded strip.
G1 Y-71 F2000
G1 X-108 Y-74 F4000; cross the extruded line to close the loop
G1 X-100 F4000; wipe across the line (X direction)
G1 X-90 Y-75 F6000; Move back for an additional wipe (Y direction)
;G92 E-0.6; This no longer works with relative E. The purpose was to compensate for the inexplicable but consistent under-extrusion that occurs at the start of the skirt. This compensation must now be done in a post-processing script.
G1 F8400; in case Slic3r would not override this, ensure fast travel to first print move
M73 P1 ;@body (notify GPX body has started)
;- - - End custom G-code for left extruder printing - - -
G21 ; set units to millimeters
G90 ; use absolute coordinates
M83; POSTPROCESS workaround for relative E in gcode.ws
; Filament gcode
;LAYER_CHANGE
;Z:0.21
;HEIGHT:0.21
M73 P0
G1 Z0.210 F7800.000
G1 E-1.00000 F1500.000
G1 X-41.868 Y36.731 F7800.000
G1 E1.00000 F1500.000
;TYPE:Skirt
;WIDTH:0.6
G1 F2400.000
G1 X-42.659 Y35.641 E0.06765
G1 X-43.164 Y34.391 E0.06765
G1 X-43.354 Y33.057 E0.06765
G1 X-43.355 Y-45.013 E3.91936
G1 X-43.290 Y-45.796 E0.03943
G1 X-43.116 Y-46.562 E0.03943
G1 X-42.835 Y-47.295 E0.03943
G1 X-42.454 Y-47.982 E0.03943
G1 X-41.608 Y-48.993 E0.06620
G1 X-40.552 Y-49.774 E0.06591
G1 X-39.338 Y-50.287 E0.06620
G1 X-38.036 Y-50.499 E0.06620
G1 X16.602 Y-50.504 E2.74299
G1 X27.560 Y-50.472 E0.55013
G1 X28.418 Y-50.316 E0.04380
G1 X29.242 Y-50.028 E0.04380
G1 X30.010 Y-49.614 E0.04380
G1 X30.708 Y-49.081 E0.04409
G1 X31.450 Y-48.271 E0.05516
G1 X32.020 Y-47.324 E0.05545
G1 X39.967 Y-29.559 E0.97704
G1 X43.115 Y-19.128 E0.54703
G1 X43.354 Y-17.486 E0.08328
G1 X43.317 Y18.245 E1.79383
G1 X43.166 Y19.275 E0.05225
G1 X41.979 Y23.733 E0.23158
G1 X41.518 Y24.916 E0.06375
G1 X41.107 Y25.666 E0.04293
G1 X40.250 Y26.778 E0.07053
G1 X30.847 Y36.957 E0.69567
G1 X30.181 Y37.503 E0.04322
G1 X29.439 Y37.940 E0.04322
G1 X28.639 Y38.257 E0.04322
G1 X27.799 Y38.446 E0.04322
G1 X27.004 Y38.504 E0.04001
G1 X-37.870 Y38.504 E3.25687
G1 X-38.653 Y38.438 E0.03943
G1 X-39.418 Y38.263 E0.03943
G1 X-40.146 Y37.984 E0.03914
G1 X-40.833 Y37.603 E0.03943
G1 X-41.822 Y36.770 E0.06493
G1 E-1.00000 F1500.000
G1 X33.642 Y10.542 F7800.000
G1 E1.00000 F1500.000
;TYPE:External perimeter
G1 F2400.000
G1 X36.467 Y12.173 E0.16377
G1 X36.721 Y12.368 E0.01608
G1 X36.928 Y12.638 E0.01707
G1 X37.058 Y12.952 E0.01707
G1 X37.100 Y13.269 E0.01608
G1 X37.100 Y17.631 E0.21898
G1 X37.058 Y17.949 E0.01608
G1 X36.928 Y18.263 E0.01707
G1 X36.721 Y18.533 E0.01707
G1 X36.451 Y18.740 E0.01707
G1 X36.155 Y18.862 E0.01608
G1 X27.117 Y21.284 E0.46974
G1 X26.800 Y21.326 E0.01608
G1 X26.463 Y21.281 E0.01707
G1 X26.149 Y21.151 E0.01707
G1 X25.879 Y20.944 E0.01707
G1 X25.672 Y20.675 E0.01707
G1 X25.542 Y20.360 E0.01707
G1 X25.497 Y20.023 E0.01707
G1 X25.542 Y19.686 E0.01707
G1 X25.672 Y19.372 E0.01707
G1 X25.879 Y19.102 E0.01707
G1 X26.149 Y18.895 E0.01707
G1 X26.445 Y18.773 E0.01608
G1 X34.462 Y16.624 E0.41671
G1 X34.649 Y16.547 E0.01014
G1 X34.793 Y16.436 E0.00914
G1 X34.904 Y16.292 E0.00914
G1 X34.967 Y16.139 E0.00828
G1 X35.000 Y14.496 E0.08250
G1 X34.974 Y14.299 E0.00999
G1 X34.904 Y14.131 E0.00914
G1 X34.793 Y13.987 E0.00914
G1 X34.649 Y13.876 E0.00914
G1 X34.484 Y13.808 E0.00894
G1 X34.280 Y13.780 E0.01036
G1 X25.780 Y13.780 E0.42669
G1 X25.463 Y13.738 E0.01608
G1 X25.149 Y13.608 E0.01707
G1 X24.879 Y13.401 E0.01707
G1 X24.672 Y13.131 E0.01707
G1 X24.537 Y12.805 E0.01773
G1 X24.499 Y11.967 E0.04211
G1 X24.542 Y11.643 E0.01642
G1 X24.672 Y11.328 E0.01707
G1 X24.879 Y11.059 E0.01707
G1 X25.149 Y10.852 E0.01707
G1 X25.463 Y10.721 E0.01707
G1 X25.780 Y10.680 E0.01608
G1 X31.100 Y10.680 E0.26706
G1 X31.100 Y11.680 E0.05020
G1 X33.337 Y11.680 E0.11231
G1 X33.626 Y10.600 E0.05612
G1 X33.909 Y10.245 F7800.000
G1 E-1.00000 F1500.000
G1 X35.499 Y19.613 F7800.000
G1 E1.00000 F1500.000
;TYPE:Perimeter
G1 F2400.000
G1 X36.518 Y19.340 E0.05293
G1 X36.150 Y20.719 E0.07167
G1 X35.878 Y20.702 E0.01373
G1 X35.804 Y20.140 E0.02845
G1 X35.529 Y19.665 E0.02755
G1 E-1.00000 F1500.000
G1 X26.700 Y-35.470 F7800.000
G1 E1.00000 F1500.000
;TYPE:External perimeter
G1 F2400.000
G1 X28.636 Y-35.470 E0.09717
G1 X28.921 Y-35.433 E0.01447
G1 X29.401 Y-35.156 E0.02780
G1 X33.736 Y-27.702 E0.43290
G1 X33.858 Y-27.369 E0.01778
G1 X33.872 Y-24.620 E0.13801
G1 X30.871 Y-24.620 E0.15069
G1 X30.871 Y-20.681 E0.19777
G1 X30.732 Y-20.165 E0.02681
G1 X30.340 Y-19.773 E0.02782
G1 X30.039 Y-19.648 E0.01640
G1 X26.700 Y-19.618 E0.16761
G1 X26.700 Y-35.410 E0.79284
G1 X26.672 Y-35.869 F7800.000
G1 E-1.00000 F1500.000
G1 X26.145 Y-19.058 F7800.000
G1 E1.00000 F1500.000
;TYPE:Perimeter
G1 F2400.000
G1 X26.612 Y-19.062 E0.02346
G1 X26.364 Y-18.738 E0.02048
G1 X26.173 Y-18.278 E0.02502
G1 X26.173 Y-17.451 E0.04152
G1 X26.616 Y-16.683 E0.04448
G1 X27.333 Y-16.270 E0.04152
G1 X27.881 Y-16.197 E0.02779
G1 X32.910 Y-17.515 E0.26099
G1 X36.744 Y-17.515 E0.19247
G1 X36.922 Y-17.492 E0.00900
G1 X36.945 Y-17.314 E0.00900
G1 X36.945 Y-15.426 E0.09478
G1 X36.922 Y-15.249 E0.00900
G1 X36.744 Y-15.225 E0.00900
G1 X32.687 Y-15.225 E0.20365
G1 X28.964 Y-14.227 E0.19354
G1 X28.326 Y-13.991 E0.03416
G1 X27.709 Y-13.619 E0.03617
G1 X27.171 Y-13.139 E0.03617
G1 X26.733 Y-12.567 E0.03617
G1 X26.408 Y-11.924 E0.03617
G1 X26.209 Y-11.232 E0.03617
G1 X26.145 Y-10.554 E0.03416
G1 X26.145 Y-2.186 E0.42009
G1 X26.209 Y-1.509 E0.03416
G1 X26.408 Y-0.817 E0.03617
G1 X26.728 Y-0.183 E0.03561
G1 X27.170 Y0.397 E0.03666
G1 X27.709 Y0.878 E0.03624
G1 X28.326 Y1.250 E0.03617
G1 X28.964 Y1.487 E0.03416
G1 X32.687 Y2.485 E0.19354
G1 X36.744 Y2.485 E0.20365
G1 X36.922 Y2.508 E0.00900
G1 X36.945 Y2.686 E0.00900
G1 X36.945 Y4.574 E0.09478
G1 X36.922 Y4.751 E0.00900
G1 X36.744 Y4.775 E0.00900
G1 X32.913 Y4.775 E0.19235
G1 X28.426 Y3.573 E0.23319
G1 X28.000 Y3.517 E0.02157
G1 X27.518 Y3.580 E0.02441
G1 X27.069 Y3.766 E0.02441
G1 X26.683 Y4.062 E0.02441
G1 X26.387 Y4.448 E0.02441
G1 X26.182 Y4.942 E0.02689
G1 X26.146 Y6.916 E0.09909
G1 X26.122 Y7.099 E0.00928
G1 X25.266 Y7.171 E0.04313
G1 X24.794 Y7.396 E0.02623
G1 X24.430 Y7.704 E0.02394
G1 X24.156 Y8.094 E0.02394
G1 X23.990 Y8.541 E0.02394
G1 X23.943 Y9.016 E0.02394
G1 X24.018 Y9.487 E0.02394
G1 X24.210 Y9.923 E0.02394
G1 X24.507 Y10.296 E0.02394
G1 X24.737 Y10.468 E0.01441
G1 X24.483 Y10.663 E0.01605
G1 X24.187 Y11.049 E0.02441
G1 X24.001 Y11.498 E0.02441
G1 X23.943 Y11.943 E0.02254
G1 X23.987 Y12.927 E0.04946
G1 X24.187 Y13.411 E0.02630
G1 X24.483 Y13.797 E0.02441
G1 X24.869 Y14.093 E0.02441
G1 X25.318 Y14.279 E0.02441
G1 X25.744 Y14.335 E0.02157
G1 X34.242 Y14.335 E0.42663
G1 X34.422 Y14.359 E0.00911
G1 X34.444 Y14.527 E0.00852
G1 X34.414 Y16.044 E0.07614
G1 X34.283 Y16.098 E0.00709
G1 X26.266 Y18.246 E0.41671
G1 X25.869 Y18.410 E0.02157
G1 X25.483 Y18.706 E0.02441
G1 X25.187 Y19.092 E0.02441
G1 X25.001 Y19.541 E0.02441
G1 X24.938 Y20.023 E0.02441
G1 X25.001 Y20.505 E0.02441
G1 X25.187 Y20.954 E0.02441
G1 X25.483 Y21.340 E0.02441
G1 X25.869 Y21.636 E0.02441
G1 X26.318 Y21.822 E0.02441
G1 X26.749 Y21.879 E0.02181
G1 X26.531 Y22.163 E0.01797
G1 X26.238 Y22.870 E0.03845
G1 X26.145 Y23.574 E0.03561
G1 X26.145 Y32.094 E0.42775
G1 X17.455 Y32.094 E0.43627
G1 X17.455 Y-44.094 E3.82487
G1 X26.145 Y-44.091 E0.43627
G1 X26.145 Y-19.118 E1.25374
G1 E-1.00000 F1500.000
G1 X26.700 Y-36.070 F7800.000
G1 E1.00000 F1500.000
;TYPE:External perimeter
G1 F2400.000
G1 X28.626 Y-36.070 E0.09667
G1 X29.085 Y-36.010 E0.02324
G1 X29.494 Y-35.840 E0.02225
G1 X29.846 Y-35.571 E0.02225
G1 X30.127 Y-35.203 E0.02324
G1 X34.266 Y-28.035 E0.41551
G1 X34.396 Y-27.755 E0.01553
G1 X34.472 Y-27.475 E0.01458
G1 X34.500 Y-27.161 E0.01583
G1 X34.500 Y-23.760 E0.17073
G1 X34.034 Y-22.020 E0.09041
G1 X33.766 Y-22.020 E0.01344
G1 X33.230 Y-24.020 E0.10395
G1 X31.500 Y-24.020 E0.08686
G1 X31.500 Y-20.740 E0.16468
G1 X31.440 Y-20.281 E0.02324
G1 X31.270 Y-19.872 E0.02225
G1 X31.000 Y-19.520 E0.02225
G1 X30.649 Y-19.250 E0.02225
G1 X30.239 Y-19.081 E0.02225
G1 X29.778 Y-19.020 E0.02334
G1 X27.531 Y-18.991 E0.11286
G1 X27.040 Y-18.708 E0.02841
G1 X26.849 Y-18.458 E0.01581
G1 X26.728 Y-18.167 E0.01581
G1 X26.728 Y-17.599 E0.02852
G1 X27.023 Y-17.089 E0.02956
G1 X27.514 Y-16.805 E0.02852
G1 X27.846 Y-16.762 E0.01678
G1 X32.839 Y-18.070 E0.25912
G1 X36.780 Y-18.070 E0.19788
G1 X36.981 Y-18.044 E0.01014
G1 X37.149 Y-17.974 E0.00914
G1 X37.293 Y-17.863 E0.00914
G1 X37.404 Y-17.719 E0.00914
G1 X37.474 Y-17.551 E0.00914
G1 X37.500 Y-17.351 E0.01014
G1 X37.500 Y-15.390 E0.09843
G1 X37.474 Y-15.190 E0.01014
G1 X37.404 Y-15.022 E0.00914
G1 X37.293 Y-14.877 E0.00914
G1 X37.149 Y-14.766 E0.00914
G1 X36.981 Y-14.697 E0.00914
G1 X36.780 Y-14.670 E0.01014
G1 X32.761 Y-14.670 E0.20181
G1 X29.132 Y-13.698 E0.18857
G1 X28.568 Y-13.489 E0.03024
G1 X28.040 Y-13.170 E0.03095
G1 X27.580 Y-12.760 E0.03095
G1 X27.205 Y-12.271 E0.03095
G1 X26.927 Y-11.720 E0.03095
G1 X26.756 Y-11.128 E0.03095
G1 X26.700 Y-10.528 E0.03024
G1 X26.700 Y-2.212 E0.41748
G1 X26.756 Y-1.613 E0.03024
G1 X26.927 Y-1.020 E0.03095
G1 X27.200 Y-0.479 E0.03043
G1 X27.580 Y0.019 E0.03143
G1 X28.040 Y0.430 E0.03097
G1 X28.568 Y0.748 E0.03095
G1 X29.132 Y0.958 E0.03024
G1 X32.761 Y1.930 E0.18857
G1 X36.780 Y1.930 E0.20181
G1 X36.981 Y1.956 E0.01014
G1 X37.148 Y2.025 E0.00911
G1 X37.296 Y2.140 E0.00936
G1 X37.404 Y2.281 E0.00894
G1 X37.474 Y2.449 E0.00914
G1 X37.500 Y2.649 E0.01014
G1 X37.500 Y4.610 E0.09843
G1 X37.474 Y4.810 E0.01014
G1 X37.404 Y4.978 E0.00914
G1 X37.293 Y5.123 E0.00914
G1 X37.149 Y5.234 E0.00914
G1 X36.981 Y5.303 E0.00914
G1 X36.780 Y5.330 E0.01014
G1 X32.839 Y5.330 E0.19784
G1 X28.317 Y4.118 E0.23503
G1 X28.000 Y4.076 E0.01608
G1 X27.663 Y4.121 E0.01707
G1 X27.349 Y4.251 E0.01707
G1 X27.079 Y4.458 E0.01707
G1 X26.872 Y4.728 E0.01707
G1 X26.735 Y5.058 E0.01794
G1 X26.700 Y6.957 E0.09538
G1 X26.674 Y7.160 E0.01027
G1 X26.604 Y7.328 E0.00914
G1 X26.493 Y7.473 E0.00914
G1 X26.349 Y7.584 E0.00914
G1 X26.187 Y7.651 E0.00878
G1 X25.413 Y7.716 E0.03899
G1 X25.098 Y7.866 E0.01755
G1 X24.843 Y8.081 E0.01675
G1 X24.651 Y8.354 E0.01675
G1 X24.535 Y8.667 E0.01675
G1 X24.502 Y8.999 E0.01675
G1 X24.555 Y9.328 E0.01675
G1 X24.689 Y9.634 E0.01675
G1 X24.897 Y9.895 E0.01675
G1 X25.164 Y10.095 E0.01675
G1 X25.473 Y10.220 E0.01675
G1 X25.785 Y10.260 E0.01577
