; generated by PrusaSlicer 2.4.0+linux-x64-GTK3 on 2022-03-17 at 17:57:05 UTC

; 

; external perimeters extrusion width = 0.45mm
; perimeters extrusion width = 0.45mm
; infill extrusion width = 0.45mm
; solid infill extrusion width = 0.45mm
; top infill extrusion width = 0.40mm
; first layer extrusion width = 0.42mm

M73 P0 R125
M73 Q0 S126
M201 X1000 Y1000 Z200 E5000 ; sets maximum accelerations, mm/sec^2
M203 X200 Y200 Z12 E120 ; sets maximum feedrates, mm/sec
M204 P1250 R1250 T1250 ; sets acceleration (P, T) and retract acceleration (R), mm/sec^2
M205 X8.00 Y8.00 Z0.40 E4.50 ; sets the jerk limits, mm/sec
M205 S0 T0 ; sets the minimum extruding and travel feed rate, mm/sec
M107
;TYPE:Custom
M862.3 P "MK3S" ; printer model check
M862.1 P0.4 ; nozzle diameter check
M115 U3.10.0 ; tell printer latest fw version
G90 ; use absolute coordinates
M83 ; extruder relative mode
M104 S240 ; set extruder temp
M140 S85 ; set bed temp
M190 S85 ; wait for bed temp
M109 S240 ; wait for extruder temp
G28 W ; home all without mesh bed level
G80 ; mesh bed leveling
G1 Z0.2 F720
G1 Y-3 F1000 ; go outside print area
G92 E0
G1 X60 E9 F1000 ; intro line
G1 X100 E12.5 F1000 ; intro line
G92 E0
M221 S95

; Don't change E values below. Excessive value can damage the printer.
M907 E430 ; set extruder motor current
G21 ; set units to millimeters
G90 ; use absolute coordinates
M83 ; use relative distances for extrusion
M900 K0.08 ; Filament gcode LA 1.5
M900 K45 ; Filament gcode LA 1.0
M107
;LAYER_CHANGE
;Z:0.2
;HEIGHT:0.2
;BEFORE_LAYER_CHANGE
G92 E0.0
;0.2


G1 E-1 F2100
G1 Z.2 F720
;AFTER_LAYER_CHANGE
;0.2
G1 Z.4
G1 X76.291 Y57.679 F10800
G1 Z.2 F720
G1 E1 F2100
M204 S800
;TYPE:Skirt/Brim
;WIDTH:0.42
G1 F1200
G1 X76.799 Y57.018 E.02612
G1 X77.462 Y56.437 E.02766
G1 X78.183 Y56.02 E.02612
G1 X79.019 Y55.737 E.02766
G1 X80 Y55.623 E.03098
G1 X170.155 Y55.628 E2.82676
G1 X170.981 Y55.737 E.02612
G1 X171.817 Y56.02 E.02766
G1 X172.538 Y56.437 E.02612
G1 X173.201 Y57.019 E.02766
G1 X173.709 Y57.679 E.02612
G1 X174.099 Y58.471 E.02766
G1 X174.314 Y59.275 E.02612
G1 X174.377 Y60 E.02281
G1 X174.377 Y150 E2.82189
G1 X174.314 Y150.725 E.02281
G1 X174.099 Y151.529 E.02612
G1 X173.709 Y152.321 E.02766
G1 X173.201 Y152.981 E.02612
G1 X172.538 Y153.563 E.02766
G1 X171.817 Y153.98 E.02612
G1 X170.981 Y154.263 E.02766
G1 X170 Y154.377 E.03098
G1 X80 Y154.377 E2.82189
G1 X79.275 Y154.314 E.02281
G1 X78.471 Y154.099 E.02612
G1 X77.679 Y153.709 E.02766
G1 X77.019 Y153.201 E.02612
G1 X76.437 Y152.538 E.02766
G1 X76.02 Y151.817 E.02612
G1 X75.737 Y150.981 E.02766
G1 X75.623 Y150 E.03098
G1 X75.623 Y60 E2.82189
G1 X75.686 Y59.275 E.02281
G1 X75.901 Y58.471 E.02612
G1 X76.265 Y57.733 E.02578
M204 S1000
; printing object sensor_module_top.stl id:0 copy 0
;WIPE_START
G1 F8640
G1 X76.799 Y57.019 E-.20594
G1 X77.462 Y56.437 E-.2037
G1 X78.183 Y56.02 E-.19236
G1 X79.019 Y55.737 E-.20368
G1 X79.639 Y55.665 E-.14431
;WIPE_END
G1 E-.05 F2100
G1 Z.4 F720
G1 X127.357 Y113.694 F10800
G1 Z.2 F720
G1 E1 F2100
M204 S800
;TYPE:Perimeter
G1 F1200
G1 X127.717 Y113.453 E.01357
G1 X128.108 Y113.28 E.01343
G1 X128.528 Y113.177 E.01356
G1 X128.83 Y113.145 E.00951
G1 X129.23 Y113.16 E.01255
G1 X129.563 Y113.221 E.0106
G1 X130.047 Y113.398 E.01616
G1 X130.484 Y113.67 E.01614
G1 X130.728 Y113.886 E.01023
G1 X130.937 Y114.121 E.00987
G1 X131.169 Y114.475 E.01325
G1 X131.367 Y114.949 E.01612
G1 X131.465 Y115.458 E.01624
G1 X131.456 Y115.98 E.01639
G1 X131.368 Y116.406 E.01364
G1 X131.175 Y116.875 E.0159
G1 X130.943 Y117.233 E.01338
G1 X130.726 Y117.478 E.01025
G1 X130.497 Y117.681 E.0096
G1 X130.241 Y117.856 E.00974
G1 X130.036 Y117.967 E.00731
G1 X129.665 Y118.113 E.01248
G1 X129.255 Y118.2 E.01313
G1 X128.744 Y118.213 E.01605
G1 X128.307 Y118.141 E.01386
G1 X127.833 Y117.968 E.01583
G1 X127.549 Y117.807 E.01022
G1 X127.302 Y117.623 E.00967
G1 X127.129 Y117.464 E.00738
G1 X126.875 Y117.165 E.0123
G1 X126.7 Y116.885 E.01034
G1 X126.502 Y116.412 E.01607
G1 X126.404 Y115.903 E.01627
G1 X126.414 Y115.373 E.01661
G1 X126.527 Y114.873 E.01606
G1 X126.7 Y114.476 E.01359
G1 X126.924 Y114.133 E.01285
G1 X127.08 Y113.949 E.00756
G1 X127.313 Y113.734 E.00993
M204 S1000
G1 X127.352 Y114.211 F10800
M204 S800
;TYPE:External perimeter
G1 F1200
G1 X127.605 Y113.978 E.01076
G1 X127.898 Y113.786 E.01098
G1 X128.231 Y113.639 E.01141
G1 X128.594 Y113.549 E.01172
G1 X128.843 Y113.523 E.00787
G1 X129.189 Y113.536 E.01085
G1 X129.463 Y113.587 E.00876
G1 X129.881 Y113.738 E.01394
G1 X130.258 Y113.973 E.01392
G1 X130.462 Y114.153 E.00852
G1 X130.637 Y114.351 E.00829
G1 X130.835 Y114.652 E.0113
G1 X131.004 Y115.058 E.01379
G1 X131.087 Y115.49 E.0138
G1 X131.079 Y115.939 E.01406
G1 X131.006 Y116.296 E.01143
G1 X130.84 Y116.699 E.01368
G1 X130.642 Y117.004 E.0114
G1 X130.459 Y117.211 E.00865
G1 X130.264 Y117.383 E.00814
G1 X130.044 Y117.534 E.00839
G1 X129.876 Y117.625 E.00597
G1 X129.556 Y117.75 E.01077
G1 X129.211 Y117.824 E.01106
G1 X128.769 Y117.835 E.01386
G1 X128.403 Y117.775 E.01164
G1 X127.992 Y117.625 E.01373
G1 X127.756 Y117.491 E.00851
G1 X127.543 Y117.332 E.00832
G1 X127.401 Y117.202 E.00603
G1 X127.18 Y116.941 E.01072
G1 X127.036 Y116.711 E.00852
G1 X126.865 Y116.303 E.01387
G1 X126.782 Y115.87 E.01382
G1 X126.79 Y115.418 E.01416
G1 X126.887 Y114.991 E.01373
G1 X127.033 Y114.656 E.01148
G1 X127.313 Y114.256 E.01531
M204 S1000
G1 X127.245 Y113.884 F10800
;WIPE_START
G1 F8640
G1 X127.605 Y113.978 E-.09304
G1 X127.898 Y113.786 E-.08089
G1 X128.231 Y113.639 E-.08404
G1 X128.594 Y113.549 E-.0863
G1 X128.843 Y113.523 E-.05792
G1 X129.189 Y113.536 E-.07987
G1 X129.463 Y113.587 E-.06449
G1 X129.881 Y113.738 E-.10264
G1 X130.258 Y113.973 E-.10252
G1 X130.462 Y114.153 E-.06272
G1 X130.637 Y114.351 E-.06103
G1 X130.814 Y114.621 E-.07453
;WIPE_END
G1 E-.05 F2100
G1 Z.4 F720
G1 X134.148 Y114.91 F10800
G1 Z.2 F720
G1 E1 F2100
M204 S800
;TYPE:Perimeter
G1 F1200
G1 X134.211 Y114.737 E.0058
G1 X134.454 Y114.347 E.0144
G1 X134.815 Y113.986 E.016
G1 X135.134 Y113.776 E.01198
G1 X135.602 Y113.592 E.01575
G1 X135.924 Y113.535 E.01027
G1 X136.405 Y113.535 E.01508
G1 X136.769 Y113.61 E.01165
G1 X137.246 Y113.817 E.01631
G1 X137.55 Y114.034 E.01171
G1 X137.854 Y114.35 E.01373
G1 X138.092 Y114.729 E.01403
G1 X138.244 Y115.143 E.01384
G1 X138.303 Y115.489 E.01099
G1 X138.304 Y115.858 E.01159
G1 X138.226 Y116.284 E.01359
G1 X138.094 Y116.624 E.01142
G1 X137.904 Y116.943 E.01165
G1 X137.621 Y117.263 E.01339
G1 X137.324 Y117.495 E.01182
G1 X136.867 Y117.72 E.01598
G1 X136.429 Y117.823 E.01409
G1 X135.974 Y117.833 E.01428
G1 X135.469 Y117.73 E.01615
G1 X135.13 Y117.581 E.01162
G1 X134.836 Y117.39 E.011
G1 X134.625 Y117.203 E.00884
G1 X134.39 Y116.926 E.0114
G1 X134.173 Y116.542 E.01381
G1 X134.023 Y116.04 E.01644
G1 X134 Y115.524 E.0162
G1 X134.06 Y115.153 E.01178
G1 X134.127 Y114.967 E.00621
M204 S1000
G1 X134.409 Y115.353 F10800
M204 S800
;TYPE:External perimeter
G1 F1200
G1 X134.426 Y115.249 E.00333
G1 X134.552 Y114.903 E.01154
G1 X134.751 Y114.583 E.0118
G1 X135.054 Y114.28 E.01344
G1 X135.309 Y114.113 E.00955
G1 X135.705 Y113.957 E.01335
G1 X135.957 Y113.912 E.00803
G1 X136.366 Y113.912 E.01283
G1 X136.655 Y113.972 E.00923
G1 X137.06 Y114.147 E.01384
G1 X137.303 Y114.321 E.00937
G1 X137.555 Y114.583 E.01142
G1 X137.752 Y114.896 E.01158
G1 X137.878 Y115.24 E.0115
G1 X137.926 Y115.521 E.00893
G1 X137.927 Y115.825 E.00951
G1 X137.861 Y116.181 E.01137
G1 X137.754 Y116.458 E.00931
G1 X137.598 Y116.72 E.00955
G1 X137.361 Y116.987 E.0112
G1 X137.123 Y117.174 E.00951
G1 X136.739 Y117.363 E.01341
G1 X136.381 Y117.447 E.01152
G1 X136.008 Y117.455 E.01171
G1 X135.584 Y117.368 E.01357
G1 X135.31 Y117.248 E.00939
G1 X135.065 Y117.089 E.00915
G1 X134.895 Y116.939 E.00711
G1 X134.701 Y116.709 E.00943
G1 X134.522 Y116.394 E.01137
G1 X134.397 Y115.977 E.01365
G1 X134.378 Y115.546 E.01352
G1 X134.4 Y115.413 E.00423
M204 S1000
G1 X134.324 Y115.29 F10800
;WIPE_START
G1 F8640
G1 X134.426 Y115.249 E-.0384
G1 X134.552 Y114.903 E-.085
G1 X134.751 Y114.583 E-.0869
G1 X135.054 Y114.28 E-.09898
G1 X135.309 Y114.113 E-.07032
G1 X135.705 Y113.957 E-.09831
G1 X135.957 Y113.912 E-.05916
G1 X136.366 Y113.912 E-.09451
G1 X136.655 Y113.972 E-.06795
G1 X137.06 Y114.147 E-.10193
G1 X137.303 Y114.321 E-.06898
G1 X137.542 Y114.569 E-.07956
;WIPE_END
G1 E-.05 F2100
G1 Z.4 F720
G1 X141.79 Y115.31 F10800
G1 Z.2 F720
G1 E1 F2100
M204 S800
;TYPE:Perimeter
G1 F1200
G1 X141.885 Y115.021 E.00955
G1 X142.052 Y114.728 E.01056
G1 X142.308 Y114.45 E.01187
G1 X142.542 Y114.282 E.00903
G1 X142.839 Y114.143 E.01029
G1 X143.137 Y114.073 E.00959
G1 X143.435 Y114.055 E.00936
G1 X143.76 Y114.101 E.01027
G1 X144.041 Y114.197 E.00931
G1 X144.36 Y114.388 E.01165
G1 X144.572 Y114.583 E.00905
G1 X144.767 Y114.843 E.01018
G1 X144.909 Y115.146 E.01051
G1 X144.986 Y115.479 E.01072
G1 X144.993 Y115.81 E.01039
G1 X144.93 Y116.148 E.01078
G1 X144.806 Y116.448 E.01016
G1 X144.659 Y116.673 E.00845
G1 X144.5 Y116.852 E.0075
G1 X144.154 Y117.11 E.01351
G1 X143.786 Y117.254 E.01242
G1 X143.512 Y117.301 E.00871
G1 X143.234 Y117.301 E.0087
G1 X142.862 Y117.226 E.01191
G1 X142.597 Y117.11 E.00908
G1 X142.331 Y116.93 E.01007
G1 X142.133 Y116.733 E.00876
G1 X141.973 Y116.51 E.0086
G1 X141.836 Y116.216 E.01016
G1 X141.768 Y115.952 E.00854
G1 X141.745 Y115.668 E.00894
G1 X141.782 Y115.37 E.00942
M204 S1000
G1 X142.124 Y115.676 F10800
M204 S800
;TYPE:External perimeter
G1 F1200
G1 X142.161 Y115.378 E.00941
G1 X142.23 Y115.177 E.00667
G1 X142.358 Y114.952 E.0081
G1 X142.559 Y114.734 E.00931
G1 X142.734 Y114.609 E.00672
G1 X142.964 Y114.501 E.00797
G1 X143.192 Y114.447 E.00734
G1 X143.42 Y114.434 E.00717
G1 X143.672 Y114.469 E.00797
G1 X143.881 Y114.541 E.00695
G1 X144.133 Y114.691 E.00919
G1 X144.291 Y114.837 E.00675
G1 X144.442 Y115.038 E.00787
G1 X144.551 Y115.27 E.00804
G1 X144.61 Y115.526 E.00824
G1 X144.616 Y115.779 E.00795
G1 X144.567 Y116.04 E.00831
G1 X144.471 Y116.271 E.00783
G1 X144.358 Y116.444 E.00649
G1 X144.244 Y116.573 E.00541
G1 X143.97 Y116.777 E.0107
G1 X143.684 Y116.889 E.00961
G1 X143.48 Y116.924 E.00652
G1 X143.272 Y116.924 E.00652
G1 X142.977 Y116.864 E.00944
G1 X142.779 Y116.778 E.00675
G1 X142.572 Y116.638 E.00786
G1 X142.421 Y116.488 E.00666
G1 X142.3 Y116.318 E.00653
G1 X142.193 Y116.088 E.00796
G1 X142.142 Y115.889 E.00645
G1 X142.129 Y115.736 E.00483
M204 S1000
G1 X141.868 Y115.518 F10800
;WIPE_START
G1 F8640
G1 X142.161 Y115.378 E-.0829
G1 X142.23 Y115.177 E-.04911
G1 X142.358 Y114.952 E-.05967
G1 X142.559 Y114.734 E-.06859
G1 X142.734 Y114.609 E-.04952
G1 X142.964 Y114.501 E-.0587
G1 X143.192 Y114.447 E-.05404
G1 X143.42 Y114.434 E-.05281
G1 X143.672 Y114.469 E-.05868
G1 X143.881 Y114.541 E-.05115
G1 X144.133 Y114.691 E-.0677
G1 X144.291 Y114.837 E-.0497
G1 X144.442 Y115.038 E-.05796
G1 X144.551 Y115.27 E-.05922
G1 X144.61 Y115.526 E-.0607
G1 X144.616 Y115.779 E-.05852
G1 X144.607 Y115.826 E-.01103
;WIPE_END
G1 E-.05 F2100
G1 Z.4 F720
G1 X151.824 Y116.611 F10800
G1 Z.2 F720
G1 E1 F2100
M204 S800
;TYPE:Perimeter
G1 F1200
G1 X151.731 Y116.729 E.00472
G1 X151.531 Y116.913 E.00852
G1 X151.214 Y117.101 E.01155
G1 X150.871 Y117.205 E.01125
G1 X150.651 Y117.228 E.00693
G1 X150.4 Y117.219 E.00789
G1 X150.089 Y117.147 E.01001
G1 X149.805 Y117.016 E.00981
G1 X149.591 Y116.863 E.00823
G1 X149.409 Y116.682 E.00806
G1 X149.259 Y116.472 E.0081
G1 X149.124 Y116.184 E.00998
G1 X149.046 Y115.821 E.01162
G1 X149.052 Y115.491 E.01035
G1 X149.123 Y115.181 E.00999
G1 X149.254 Y114.896 E.00982
G1 X149.412 Y114.675 E.00851
G1 X149.638 Y114.458 E.00982
G1 X149.909 Y114.288 E.01002
G1 X150.21 Y114.177 E.01006
G1 X150.474 Y114.137 E.00838
G1 X150.669 Y114.132 E.00613
G1 X151.033 Y114.192 E.01156
G1 X151.385 Y114.348 E.01205
G1 X151.641 Y114.54 E.01005
G1 X151.849 Y114.774 E.00983
G1 X151.993 Y115.016 E.00882
G1 X152.107 Y115.352 E.01111
G1 X152.142 Y115.627 E.00871
G1 X152.101 Y116.039 E.01297
G1 X152.014 Y116.296 E.00851
G1 X151.861 Y116.563 E.00966
M204 S1000
G1 X151.667 Y116.145 F10800
M204 S800
;TYPE:External perimeter
G1 F1200
G1 X151.573 Y116.319 E.00623
G1 X151.453 Y116.473 E.00611
G1 X151.305 Y116.609 E.0063
G1 X151.062 Y116.754 E.00887
G1 X150.796 Y116.834 E.0087
G1 X150.638 Y116.85 E.00497
G1 X150.45 Y116.843 E.00593
G1 X150.212 Y116.789 E.00766
G1 X149.995 Y116.688 E.00747
G1 X149.835 Y116.574 E.00616
G1 X149.697 Y116.437 E.00611
G1 X149.586 Y116.281 E.00602
G1 X149.484 Y116.063 E.00754
G1 X149.424 Y115.785 E.00892
G1 X149.429 Y115.537 E.00777
G1 X149.482 Y115.303 E.00753
G1 X149.582 Y115.086 E.00748
G1 X149.699 Y114.923 E.0063
G1 X149.871 Y114.757 E.0075
G1 X150.076 Y114.629 E.00757
G1 X150.304 Y114.544 E.00764
G1 X150.507 Y114.513 E.00643
G1 X150.643 Y114.51 E.00426
G1 X150.925 Y114.557 E.00895
G1 X151.193 Y114.675 E.0092
G1 X151.384 Y114.819 E.00749
G1 X151.543 Y114.998 E.00751
G1 X151.649 Y115.175 E.00647
G1 X151.738 Y115.437 E.00867
G1 X151.763 Y115.633 E.00618
G1 X151.73 Y115.958 E.01027
G1 X151.686 Y116.088 E.00428
M204 S1000
G1 X151.788 Y116.302 F10800
;WIPE_START
G1 F8640
G1 X151.573 Y116.319 E-.05959
G1 X151.453 Y116.473 E-.04498
G1 X151.305 Y116.609 E-.04641
G1 X151.062 Y116.754 E-.06534
G1 X150.796 Y116.834 E-.06405
G1 X150.638 Y116.85 E-.03659
G1 X150.45 Y116.843 E-.04366
G1 X150.212 Y116.789 E-.05639
G1 X149.995 Y116.688 E-.055
G1 X149.835 Y116.574 E-.04539
G1 X149.697 Y116.437 E-.04498
G1 X149.586 Y116.281 E-.04431
G1 X149.484 Y116.063 E-.05553
G1 X149.424 Y115.785 E-.0657
G1 X149.429 Y115.537 E-.05723
G1 X149.482 Y115.303 E-.05543
G1 X149.582 Y115.086 E-.05505
G1 X149.699 Y114.923 E-.04642
G1 X149.723 Y114.899 E-.00793
;WIPE_END
G1 E-.05 F2100
G1 Z.4 F720
G1 X158.998 Y116.248 F10800
G1 Z.2 F720
G1 E1 F2100
M204 S800
;TYPE:Perimeter
G1 F1200
G1 X158.811 Y116.547 E.01106
G1 X158.646 Y116.705 E.00716
G1 X158.358 Y116.886 E.01066
G1 X158.09 Y116.973 E.00885
G1 X157.864 Y117.002 E.00713
G1 X157.595 Y116.985 E.00844
G1 X157.302 Y116.905 E.00955
G1 X156.919 Y116.663 E.0142
G1 X156.711 Y116.416 E.01013
G1 X156.586 Y116.186 E.00819
G1 X156.487 Y115.765 E.01356
G1 X156.504 Y115.472 E.0092
G1 X156.561 Y115.245 E.00735
G1 X156.674 Y115.002 E.0084
G1 X156.846 Y114.772 E.00902
G1 X157.138 Y114.538 E.01173
G1 X157.467 Y114.402 E.01117
G1 X157.699 Y114.363 E.00736
G1 X157.963 Y114.367 E.00827
G1 X158.183 Y114.413 E.00706
G1 X158.395 Y114.494 E.00712
G1 X158.622 Y114.637 E.00842
G1 X158.797 Y114.797 E.00742
G1 X158.994 Y115.086 E.01097
G1 X159.093 Y115.351 E.00888
G1 X159.133 Y115.658 E.00971
G1 X159.114 Y115.905 E.00776
G1 X159.029 Y116.197 E.00952
M204 S1000
G1 X158.741 Y115.839 F10800
M204 S800
;TYPE:External perimeter
G1 F1200
G1 X158.688 Y116.032 E.00626
G1 X158.516 Y116.308 E.01019
G1 X158.413 Y116.406 E.00446
G1 X158.197 Y116.542 E.00798
G1 X158.007 Y116.603 E.00628
G1 X157.852 Y116.623 E.00491
G1 X157.657 Y116.611 E.00611
G1 X157.456 Y116.556 E.00655
G1 X157.17 Y116.375 E.0106
G1 X157.024 Y116.202 E.0071
G1 X156.942 Y116.051 E.0054
G1 X156.867 Y115.732 E.01025
G1 X156.879 Y115.53 E.00637
G1 X156.918 Y115.372 E.00511
G1 X157 Y115.197 E.00606
G1 X157.12 Y115.036 E.00629
G1 X157.332 Y114.866 E.00852
G1 X157.572 Y114.767 E.00815
G1 X157.727 Y114.741 E.00494
G1 X157.921 Y114.744 E.00608
G1 X158.077 Y114.776 E.00498
G1 X158.225 Y114.833 E.005
G1 X158.393 Y114.938 E.00619
G1 X158.51 Y115.045 E.00498
G1 X158.656 Y115.261 E.00819
G1 X158.725 Y115.443 E.0061
G1 X158.754 Y115.668 E.00711
G1 X158.746 Y115.78 E.0035
M204 S1000
G1 X158.895 Y115.967 F10800
;WIPE_START
G1 F8640
G1 X158.688 Y116.032 E-.0598
G1 X158.516 Y116.308 E-.07507
G1 X158.413 Y116.406 E-.03282
G1 X158.197 Y116.542 E-.0588
G1 X158.007 Y116.603 E-.04622
G1 X157.852 Y116.623 E-.03616
G1 X157.657 Y116.611 E-.04497
G1 X157.456 Y116.556 E-.04824
G1 X157.17 Y116.375 E-.0781
G1 X157.024 Y116.202 E-.05232
G1 X156.942 Y116.051 E-.03978
G1 X156.867 Y115.732 E-.07547
G1 X156.879 Y115.53 E-.04692
G1 X156.918 Y115.372 E-.0376
G1 X157 Y115.197 E-.0446
G1 X157.12 Y115.036 E-.04631
G1 X157.332 Y114.866 E-.06273
G1 X157.572 Y114.767 E-.06001
G1 X157.589 Y114.764 E-.00409
;WIPE_END
G1 E-.05 F2100
G1 Z.4 F720
