; generated by PrusaSlicer 2.3.0+linux-x64 on 2021-09-02 at 19:00:19 UTC

; 

; external perimeters extrusion width = 0.42mm
; perimeters extrusion width = 0.42mm
; infill extrusion width = 0.60mm
; solid infill extrusion width = 0.60mm
; top infill extrusion width = 0.42mm
; support material extrusion width = 0.60mm
; first layer extrusion width = 0.60mm

M127
;TYPE:Custom
;- - - Custom G-code for left extruder printing with FlashForge Creator Pro - - -
;- - - by DrLex; 2016/09-2019/04. Released under Creative Commons Attribution License. - - -
;- - - Modified by rpavlik for Replicator 2x; 2019/10 - - -
; IMPORTANT: ensure your home offsets are correctly set. The Y home offset is correct if
;   the initial extrusion performed by this code is at 3mm from the front edge of the bed.
; IMPORTANT: ensure "Use relative E distances" is enabled in Printer settings.
;
;SUMMARY
;
;first layer temperature = 230C
;temperature = 230C
;first layer bed temperature = 110C
;bed temperature = 105C
;
;bottom solid layers = 2
;top solid layers = 2
;perimeters = 2
;seam position = nearest
;
;layer height = 0.2mm
;first layer height = 0.21mm
;z_offset = 0mm
;fill density = 20%
;fill pattern = gyroid
;infill only where needed = 0
;
;skirts = 1
;brim width = 0mm
;raft layers = 0
;support material = 1
;support material threshold = 20 degrees
;support material enforced for first n layers = 0
;support material extruder = 1
;
;first layer speed = 40
;perimeter speed = 60mm/s
;small perimeter speed = 20
;external perimeter speed = 50%
;infill speed = 80mm/s
;solid infill speed = 40
;top solid infill speed = 30
;support material speed = 80mm/s
;gap fill speed = 20mm/s
;travel speed = 130mm/s
;bridge speed = 60mm/s
;bridge flow ratio = 1
;slowdown if layer time is less than = 4secs
;minimum print speed = 10mm/s
;
;
;EXTRUSION
;
;filament diameter = 1.77mm
;nozzle diameter = 0.4mm
;bridge flow ratio = 1
;extrusion axis = E
;extrusion multiplier = 1.06
;extrusion width = 0.6mm
;first layer extrusion width = 0.6mm
;perimeter extrusion width = 0.42mm
;infill extrusion width = 0mm
;solid infill extrusion width = 0mm
;top infill extrusion width = 0.42mm
;support material extrusion width = 0mm
;
;
;SUPPORT
;
;raft layers = 0
;brim width = 0mm
;support material = 1
;support material threshold = 20 degrees
;support material enforced for first n layers = 0
;support material extruder = 1
;support material extrusion width = 0mm
;support material interface layers = 3
;support material interface spacing = 0mm
;support material pattern = rectilinear
;support material angle = 0 degrees
;support material spacing = 0.8mm
;support material speed = 80mm/s
;
;
;OTHER (see end of file for all parameters)
;
;complete objects = 0
;cooling enabled = 1
;disable fan for first layers = 2
;duplicate distance = 6mm
;external perimeters first = 0
;extra perimeters = 1
;extruder clearance height = 20mm
;extruder clearance radius = 20mm
;extruder offset = 0,0mm
;fan always on = 0
;fan below layer time = 11secs
;fill angle = 45 degrees
;gcode comments = 0
;gcode flavor = sailfish
;infill every n layers = 1
;infill extruder = 1
;infill first = 0
;minimum skirt length = 10mm
;only retract when crossing perimeters = 1
;perimeter extruder = 1
;retract before travel = 2
;retract on layer change = 0
;retract length = 1mm
;retract length on tool change = 4mm
;retract lift = 0
;retract extra distance on restart = 0mm
;retract extra on tool change = 0mm
;retract speed = 25mm/s
;skirt distance = 5mm
;skirt height = 1 layers
;solid infill below area = 50mm (sq)
;solid infill every n layers = 0
;
;- - - - - - - - - - - - - - - - - - - - - - - - -

T0; start with the right extruder. We will switch to T1 after having moved the print head to provide enough space for the nozzle offset.
M73 P0; enable show build progress
M140 S110; heat bed up to first layer temperature
M104 S140 T1; preheat nozzle to 140 degrees, this should not cause oozing
M127; disable fan
G21; set units to mm
M320; acceleration enabled for all commands that follow
G162 X Y F8400; home XY axes maximum
G161 Z F1500; roughly home Z axis minimum
G92 X118 Y72.5 Z0 E0 B0; set (rough) reference point (also set E and B to make GPX happy). This will be overridden by the M132 below but ensures correct visualisation in some programs.
G1 Z5 F1500; move the bed down again
G4 P0; Wait for command to finish
G161 Z F100; accurately home Z axis minimum
M132 X Y Z A B; Recall stored home offsets (accurate reference point which you can configure in the printer's LCD menu).
G90; set positioning to absolute
M83; use relative E coordinates
G1 Z20 F1500; move Z to waiting height
G1 X140 Y65 F1500; do a slow small move to allow acceleration to be gently initialised
G1 X70 Y-75 F5400; move to waiting position (front right corner of print bed), also makes room for the tool change
; In theory, Sailfish should combine the T1 with the next move. I have tried to make this work many times and I found it extremely unreliable, therefore I force an explicit tool swap as follows.
G1 F4000; set speed for tool change, keep it low because not accelerated.
T1; switch to the left extruder
G4 P0; flush pipeline
M18 A B; disable extruder steppers while heating
M190 S110; Wait for bed to heat up. Leave extruder at 140C, to avoid cooking the filament.
M104 S230 T1; set nozzle heater to first layer temperature
M116; wait for everything to reach target temperature
M17 B; re-enable left extruder stepper
G1 Z0 F1000
G1 X70 Y-74 F4000; chop off any ooze on the front of the bed
G1 Z0.21 F1500; move to first layer height
G1 X-121 E24 F2000; extrude a line of filament across the front edge of the bed (3mm from the front edge)
; Note how we extrude a little beyond the bed, this produces a tiny loop that makes it easier to remove the extruded strip.
G1 Y-71 F2000
G1 X-108 Y-74 F4000; cross the extruded line to close the loop
G1 X-100 F4000; wipe across the line (X direction)
G1 X-90 Y-75 F6000; Move back for an additional wipe (Y direction)
;G92 E-0.6; This no longer works with relative E. The purpose was to compensate for the inexplicable but consistent under-extrusion that occurs at the start of the skirt. This compensation must now be done in a post-processing script.
G1 F8400; in case Slic3r would not override this, ensure fast travel to first print move
M73 P1 ;@body (notify GPX body has started)
;- - - End custom G-code for left extruder printing - - -
G21 ; set units to millimeters
G90 ; use absolute coordinates
M83; POSTPROCESS workaround for relative E in gcode.ws
; Filament gcode
;LAYER_CHANGE
;Z:0.21
;HEIGHT:0.21
M73 P0
G1 Z0.210 F7800.000
G1 E-1.00000 F1500.000
G1 X-91.501 Y47.448 F7800.000
G1 E1.00000 F1500.000
;TYPE:Skirt
;WIDTH:0.6
G1 F2400.000
G1 X-92.830 Y46.880 E0.07258
G1 X-93.968 Y45.988 E0.07258
G1 X-94.837 Y44.832 E0.07258
G1 X-95.368 Y43.531 E0.07055
G1 X-95.555 Y42.138 E0.07055
G1 X-95.554 Y-54.211 E4.83700
G1 X-95.339 Y-55.634 E0.07229
G1 X-94.768 Y-56.950 E0.07200
G1 X-93.879 Y-58.076 E0.07200
G1 X-92.732 Y-58.937 E0.07200
G1 X-91.425 Y-59.469 E0.07084
G1 X-90.021 Y-59.655 E0.07113
G1 X90.006 Y-59.655 E9.03787
G1 X91.076 Y-59.550 E0.05399
G1 X92.101 Y-59.242 E0.05370
G1 X93.048 Y-58.744 E0.05370
G1 X93.881 Y-58.074 E0.05370
G1 X94.571 Y-57.256 E0.05370
G1 X95.091 Y-56.322 E0.05370
G1 X95.423 Y-55.305 E0.05370
G1 X95.553 Y-54.243 E0.05370
G1 X95.553 Y42.257 E4.84460
G1 X95.331 Y43.662 E0.07142
G1 X94.759 Y44.965 E0.07142
G1 X93.875 Y46.080 E0.07142
G1 X92.732 Y46.937 E0.07171
G1 X91.425 Y47.469 E0.07084
G1 X90.021 Y47.655 E0.07113
G1 X-90.064 Y47.655 E9.04080
G1 X-91.441 Y47.457 E0.06986
G1 E-1.00000 F1500.000
G1 X-2.714 Y-4.770 F7800.000
G1 E1.00000 F1500.000
;TYPE:Perimeter
G1 F2400.000
G1 X-2.714 Y-5.706 E0.04704
G1 X-2.407 Y-6.551 E0.04512
G1 X-2.095 Y-6.997 E0.02731
G1 X-1.436 Y-7.550 E0.04320
G1 X-0.971 Y-7.766 E0.02572
G1 X-0.452 Y-7.898 E0.02689
G1 X0.374 Y-7.894 E0.04150
G1 X0.898 Y-7.754 E0.02723
G1 X1.677 Y-7.305 E0.04512
G1 X2.279 Y-6.587 E0.04704
G1 X2.599 Y-5.706 E0.04704
G1 X2.599 Y-4.808 E0.04512
G1 X2.467 Y-4.313 E0.02572
G1 X2.234 Y-3.831 E0.02689
G1 X1.700 Y-3.200 E0.04150
G1 X1.255 Y-2.889 E0.02722
G1 X0.411 Y-2.581 E0.04512
G1 X-0.488 Y-2.581 E0.04512
G1 X-0.983 Y-2.714 E0.02572
G1 X-1.465 Y-2.947 E0.02689
G1 X-2.096 Y-3.481 E0.04150
G1 X-2.407 Y-3.925 E0.02722
G1 X-2.694 Y-4.713 E0.04211
G1 X-2.159 Y-4.867 F7800.000
;TYPE:External perimeter
G1 F2400.000
G1 X-2.159 Y-5.609 E0.03721
G1 X-1.910 Y-6.293 E0.03654
G1 X-1.682 Y-6.618 E0.01998
G1 X-1.135 Y-7.078 E0.03587
G1 X-0.784 Y-7.241 E0.01942
G1 X-0.384 Y-7.342 E0.02073
G1 X0.300 Y-7.340 E0.03436
G1 X0.684 Y-7.237 E0.01995
G1 X1.314 Y-6.873 E0.03654
G1 X1.791 Y-6.305 E0.03721
G1 X2.044 Y-5.609 E0.03721
G1 X2.044 Y-4.881 E0.03654
G1 X1.944 Y-4.507 E0.01942
G1 X1.765 Y-4.135 E0.02073
G1 X1.322 Y-3.613 E0.03436
G1 X0.997 Y-3.385 E0.01995
G1 X0.313 Y-3.136 E0.03654
G1 X-0.415 Y-3.136 E0.03654
G1 X-0.788 Y-3.236 E0.01942
G1 X-1.160 Y-3.416 E0.02073
G1 X-1.683 Y-3.858 E0.03436
G1 X-1.910 Y-4.183 E0.01995
G1 X-2.139 Y-4.811 E0.03353
G1 X-2.531 Y-5.014 F7800.000
G1 E-1.00000 F1500.000
G1 X-0.416 Y24.885 F7800.000
G1 E1.00000 F1500.000
;TYPE:Perimeter
G1 F2400.000
G1 X0.407 Y24.888 E0.04134
G1 X0.929 Y25.028 E0.02714
G1 X1.704 Y25.475 E0.04494
G1 X2.304 Y26.190 E0.04686
G1 X2.624 Y27.068 E0.04686
G1 X2.624 Y28.001 E0.04686
G1 X2.317 Y28.842 E0.04494
G1 X2.006 Y29.287 E0.02723
G1 X1.321 Y29.862 E0.04495
G1 X0.443 Y30.181 E0.04686
G1 X-0.452 Y30.181 E0.04495
G1 X-0.945 Y30.049 E0.02563
G1 X-1.425 Y29.817 E0.02679
G1 X-2.054 Y29.285 E0.04134
G1 X-2.364 Y28.842 E0.02714
G1 X-2.657 Y28.037 E0.04303
G1 X-2.702 Y27.528 E0.02563
G1 X-2.648 Y26.997 E0.02679
G1 X-2.363 Y26.225 E0.04134
G1 X-2.053 Y25.782 E0.02714
G1 X-1.396 Y25.231 E0.04303
G1 X-0.934 Y25.015 E0.02563
G1 X-0.475 Y24.899 E0.02378
G1 X-0.348 Y25.440 F7800.000
;TYPE:External perimeter
G1 F2400.000
G1 X0.333 Y25.442 E0.03420
G1 X0.715 Y25.545 E0.01986
G1 X1.342 Y25.907 E0.03636
G1 X1.816 Y26.472 E0.03704
G1 X2.069 Y27.165 E0.03704
G1 X2.069 Y27.903 E0.03704
G1 X1.821 Y28.584 E0.03637
G1 X1.594 Y28.908 E0.01989
G1 X1.039 Y29.374 E0.03637
G1 X0.346 Y29.626 E0.03704
G1 X-0.379 Y29.626 E0.03637
G1 X-0.751 Y29.527 E0.01933
G1 X-1.121 Y29.348 E0.02063
G1 X-1.641 Y28.908 E0.03420
G1 X-1.868 Y28.584 E0.01986
G1 X-2.111 Y27.916 E0.03569
G1 X-2.144 Y27.532 E0.01933
G1 X-2.103 Y27.123 E0.02063
G1 X-1.867 Y26.484 E0.03420
G1 X-1.640 Y26.160 E0.01986
G1 X-1.096 Y25.703 E0.03569
G1 X-0.747 Y25.541 E0.01933
G1 X-0.407 Y25.454 E0.01762
G1 X-0.188 Y25.073 F7800.000
G1 E-1.00000 F1500.000
G1 X61.795 Y27.981 F7800.000
G1 E1.00000 F1500.000
;TYPE:Perimeter
G1 F2400.000
G1 X61.795 Y27.082 E0.04512
G1 X61.936 Y26.557 E0.02731
G1 X62.385 Y25.778 E0.04512
G1 X63.074 Y25.201 E0.04512
G1 X63.538 Y24.984 E0.02572
G1 X64.057 Y24.853 E0.02689
G1 X64.884 Y24.856 E0.04150
G1 X65.407 Y24.996 E0.02723
G1 X66.186 Y25.446 E0.04512
G1 X66.788 Y26.164 E0.04704
G1 X67.108 Y27.044 E0.04704
G1 X67.108 Y27.943 E0.04512
G1 X66.968 Y28.468 E0.02731
G1 X66.518 Y29.247 E0.04512
G1 X65.801 Y29.849 E0.04704
G1 X64.920 Y30.169 E0.04704
G1 X64.021 Y30.169 E0.04512
G1 X63.527 Y30.037 E0.02572
G1 X63.044 Y29.804 E0.02689
G1 X62.413 Y29.270 E0.04150
G1 X62.102 Y28.825 E0.02722
G1 X61.815 Y28.037 E0.04211
G1 X62.350 Y27.883 F7800.000
;TYPE:External perimeter
G1 F2400.000
G1 X62.350 Y27.155 E0.03654
G1 X62.453 Y26.771 E0.01998
G1 X62.817 Y26.141 E0.03654
G1 X63.374 Y25.673 E0.03654
G1 X63.725 Y25.509 E0.01942
G1 X64.125 Y25.408 E0.02073
G1 X64.809 Y25.411 E0.03436
G1 X65.193 Y25.514 E0.01995
G1 X65.824 Y25.878 E0.03654
G1 X66.300 Y26.445 E0.03721
G1 X66.554 Y27.142 E0.03721
G1 X66.554 Y27.870 E0.03654
G1 X66.451 Y28.254 E0.01998
G1 X66.087 Y28.884 E0.03654
G1 X65.519 Y29.361 E0.03721
G1 X64.822 Y29.614 E0.03721
G1 X64.094 Y29.614 E0.03654
G1 X63.721 Y29.514 E0.01942
G1 X63.349 Y29.335 E0.02073
G1 X62.827 Y28.893 E0.03436
G1 X62.599 Y28.567 E0.01995
G1 X62.370 Y27.939 E0.03353
G1 X61.978 Y27.736 F7800.000
G1 E-1.00000 F1500.000
G1 X63.983 Y-2.581 F7800.000
G1 E1.00000 F1500.000
;TYPE:Perimeter
G1 F2400.000
G1 X63.139 Y-2.888 E0.04512
G1 X62.719 Y-3.182 E0.02572
G1 X62.346 Y-3.566 E0.02689
G1 X61.935 Y-4.284 E0.04150
G1 X61.805 Y-4.771 E0.02533
G1 X61.763 Y-5.244 E0.02383
G1 X61.817 Y-5.777 E0.02689
G1 X62.103 Y-6.552 E0.04150
G1 X62.414 Y-6.996 E0.02722
G1 X63.074 Y-7.550 E0.04320
G1 X63.538 Y-7.766 E0.02572
G1 X64.057 Y-7.898 E0.02689
G1 X64.884 Y-7.894 E0.04150
G1 X65.407 Y-7.754 E0.02723
G1 X66.186 Y-7.304 E0.04512
G1 X66.788 Y-6.587 E0.04704
G1 X67.108 Y-5.706 E0.04704
G1 X67.108 Y-4.808 E0.04512
G1 X66.968 Y-4.282 E0.02731
G1 X66.518 Y-3.504 E0.04512
G1 X65.801 Y-2.901 E0.04704
G1 X64.920 Y-2.581 E0.04704
G1 X64.043 Y-2.581 E0.04403
G1 X64.081 Y-3.136 F7800.000
;TYPE:External perimeter
G1 F2400.000
G1 X63.397 Y-3.385 E0.03654
G1 X63.080 Y-3.607 E0.01942
G1 X62.792 Y-3.903 E0.02073
G1 X62.453 Y-4.497 E0.03436
G1 X62.353 Y-4.868 E0.01928
G1 X62.321 Y-5.240 E0.01875
G1 X62.362 Y-5.651 E0.02073
G1 X62.599 Y-6.293 E0.03436
G1 X62.827 Y-6.618 E0.01995
G1 X63.374 Y-7.078 E0.03587
G1 X63.725 Y-7.241 E0.01942
G1 X64.125 Y-7.342 E0.02073
G1 X64.809 Y-7.340 E0.03436
G1 X65.193 Y-7.237 E0.01995
G1 X65.824 Y-6.873 E0.03654
G1 X66.300 Y-6.305 E0.03721
G1 X66.554 Y-5.608 E0.03721
G1 X66.554 Y-4.881 E0.03654
G1 X66.451 Y-4.496 E0.01998
G1 X66.087 Y-3.866 E0.03654
G1 X65.519 Y-3.389 E0.03721
G1 X64.822 Y-3.136 E0.03721
G1 X64.141 Y-3.136 E0.03420
G1 X63.824 Y-2.830 F7800.000
G1 E-1.00000 F1500.000
G1 X64.920 Y-35.586 F7800.000
G1 E1.00000 F1500.000
;TYPE:Perimeter
G1 F2400.000
G1 X64.021 Y-35.586 E0.04512
G1 X63.527 Y-35.718 E0.02572
G1 X63.044 Y-35.951 E0.02689
G1 X62.413 Y-36.485 E0.04150
G1 X62.102 Y-36.930 E0.02722
G1 X61.795 Y-37.774 E0.04512
G1 X61.795 Y-38.673 E0.04512
G1 X61.936 Y-39.198 E0.02731
G1 X62.385 Y-39.977 E0.04512
G1 X63.074 Y-40.554 E0.04512
G1 X63.538 Y-40.771 E0.02572
G1 X64.057 Y-40.902 E0.02689
G1 X64.884 Y-40.899 E0.04150
G1 X65.407 Y-40.759 E0.02723
G1 X66.186 Y-40.309 E0.04512
G1 X66.788 Y-39.591 E0.04704
G1 X67.108 Y-38.711 E0.04704
G1 X67.108 Y-37.774 E0.04704
G1 X66.801 Y-36.930 E0.04512
G1 X66.489 Y-36.484 E0.02731
G1 X65.801 Y-35.906 E0.04512
G1 X64.977 Y-35.606 E0.04402
G1 X64.822 Y-36.141 F7800.000
;TYPE:External perimeter
G1 F2400.000
G1 X64.094 Y-36.141 E0.03654
G1 X63.721 Y-36.241 E0.01942
G1 X63.349 Y-36.420 E0.02073
G1 X62.827 Y-36.863 E0.03436
G1 X62.599 Y-37.188 E0.01995
G1 X62.350 Y-37.872 E0.03654
G1 X62.350 Y-38.600 E0.03654
G1 X62.453 Y-38.984 E0.01998
G1 X62.817 Y-39.614 E0.03654
G1 X63.374 Y-40.082 E0.03654
G1 X63.725 Y-40.246 E0.01942
G1 X64.125 Y-40.347 E0.02073
G1 X64.809 Y-40.344 E0.03436
G1 X65.193 Y-40.241 E0.01995
G1 X65.824 Y-39.877 E0.03654
G1 X66.300 Y-39.310 E0.03721
G1 X66.554 Y-38.613 E0.03721
G1 X66.554 Y-37.872 E0.03721
G1 X66.305 Y-37.188 E0.03654
G1 X66.076 Y-36.862 E0.01998
G1 X65.519 Y-36.394 E0.03654
G1 X64.879 Y-36.161 E0.03420
G1 X64.685 Y-35.765 F7800.000
G1 E-1.00000 F1500.000
G1 X2.599 Y-38.711 F7800.000
G1 E1.00000 F1500.000
;TYPE:Perimeter
G1 F2400.000
G1 X2.599 Y-37.812 E0.04512
G1 X2.467 Y-37.318 E0.02572
G1 X2.234 Y-36.835 E0.02689
G1 X1.700 Y-36.204 E0.04150
G1 X1.255 Y-35.893 E0.02722
G1 X0.411 Y-35.586 E0.04512
G1 X-0.526 Y-35.586 E0.04704
G1 X-1.406 Y-35.906 E0.04704
G1 X-2.095 Y-36.484 E0.04512
G1 X-2.407 Y-36.930 E0.02731
G1 X-2.714 Y-37.774 E0.04512
G1 X-2.714 Y-38.711 E0.04704
G1 X-2.407 Y-39.556 E0.04512
G1 X-2.095 Y-40.001 E0.02731
G1 X-1.436 Y-40.554 E0.04320
G1 X-0.971 Y-40.771 E0.02572
G1 X-0.452 Y-40.902 E0.02689
G1 X0.374 Y-40.899 E0.04150
G1 X0.898 Y-40.759 E0.02722
G1 X1.677 Y-40.309 E0.04512
G1 X2.279 Y-39.592 E0.04704
G1 X2.579 Y-38.768 E0.04403
G1 X2.044 Y-38.613 F7800.000
;TYPE:External perimeter
G1 F2400.000
G1 X2.044 Y-37.885 E0.03654
G1 X1.944 Y-37.512 E0.01942
G1 X1.765 Y-37.140 E0.02073
G1 X1.322 Y-36.618 E0.03436
G1 X0.997 Y-36.390 E0.01995
G1 X0.313 Y-36.141 E0.03654
G1 X-0.428 Y-36.141 E0.03721
G1 X-1.125 Y-36.394 E0.03721
G1 X-1.682 Y-36.862 E0.03654
