; generated by PrusaSlicer 2.3.0+linux-x64 on 2021-08-31 at 08:53:50 UTC

; 

; external perimeters extrusion width = 0.42mm
; perimeters extrusion width = 0.42mm
; infill extrusion width = 0.60mm
; solid infill extrusion width = 0.60mm
; top infill extrusion width = 0.42mm
; support material extrusion width = 0.60mm
; first layer extrusion width = 0.60mm

M127
;TYPE:Custom
;- - - Custom G-code for right extruder printing with FlashForge Creator Pro - - -
;- - - by DrLex; 2016/09-2019/04. Released under Creative Commons Attribution License. - - -
;- - - Modified by rpavlik for Replicator 2x; 2019/10 - - -
; IMPORTANT: ensure your home offsets are correctly set. The Y home offset is correct if
;   the initial extrusion performed by this code is at 3mm from the front edge of the bed.
; IMPORTANT: ensure "Use relative E distances" is enabled in Printer settings.
;
;SUMMARY
;
;first layer temperature = 230C
;temperature = 230C
;first layer bed temperature = 110C
;bed temperature = 105C
;
;bottom solid layers = 2
;top solid layers = 2
;perimeters = 2
;seam position = nearest
;
;layer height = 0.2mm
;first layer height = 0.21mm
;z_offset = 0mm
;fill density = 20%
;fill pattern = gyroid
;infill only where needed = 0
;
;skirts = 1
;brim width = 0mm
;raft layers = 0
;support material = 1
;support material threshold = 20 degrees
;support material enforced for first n layers = 0
;support material extruder = 1
;
;first layer speed = 40
;perimeter speed = 60mm/s
;small perimeter speed = 20
;external perimeter speed = 50%
;infill speed = 80mm/s
;solid infill speed = 40
;top solid infill speed = 30
;support material speed = 80mm/s
;gap fill speed = 20mm/s
;travel speed = 130mm/s
;bridge speed = 60mm/s
;bridge flow ratio = 1
;slowdown if layer time is less than = 4secs
;minimum print speed = 10mm/s
;
;
;EXTRUSION
;
;filament diameter = 1.77mm
;nozzle diameter = 0.4mm
;bridge flow ratio = 1
;extrusion axis = E
;extrusion multiplier = 1.06
;extrusion width = 0.6mm
;first layer extrusion width = 0.6mm
;perimeter extrusion width = 0.42mm
;infill extrusion width = 0mm
;solid infill extrusion width = 0mm
;top infill extrusion width = 0.42mm
;support material extrusion width = 0mm
;
;
;SUPPORT
;
;raft layers = 0
;brim width = 0mm
;support material = 1
;support material threshold = 20 degrees
;support material enforced for first n layers = 0
;support material extruder = 1
;support material extrusion width = 0mm
;support material interface layers = 3
;support material interface spacing = 0mm
;support material pattern = rectilinear
;support material angle = 0 degrees
;support material spacing = 0.8mm
;support material speed = 80mm/s
;
;
;OTHER (see end of file for all parameters)
;
;complete objects = 0
;cooling enabled = 1
;disable fan for first layers = 2
;duplicate distance = 6mm
;external perimeters first = 0
;extra perimeters = 1
;extruder clearance height = 20mm
;extruder clearance radius = 20mm
;extruder offset = 0,0mm
;fan always on = 0
;fan below layer time = 11secs
;fill angle = 45 degrees
;gcode comments = 0
;gcode flavor = sailfish
;infill every n layers = 1
;infill extruder = 1
;infill first = 0
;minimum skirt length = 10mm
;only retract when crossing perimeters = 1
;perimeter extruder = 1
;retract before travel = 2
;retract on layer change = 0
;retract length = 1mm
;retract length on tool change = 4mm
;retract lift = 0
;retract extra distance on restart = 0mm
;retract extra on tool change = 0mm
;retract speed = 25mm/s
;skirt distance = 5mm
;skirt height = 1 layers
;solid infill below area = 50mm (sq)
;solid infill every n layers = 0
;
;- - - - - - - - - - - - - - - - - - - - - - - - -

T0; set primary extruder
M73 P0; enable show build progress
M140 S110; heat bed up to first layer temperature
M104 S140 T0; preheat nozzle to 140 degrees, this should not cause oozing
M127; disable fan
G21; set units to mm
M320; acceleration enabled for all commands that follow
G162 X Y F8400; home XY axes maximum
G161 Z F1500; roughly home Z axis minimum
G92 X118 Y72.5 Z0 E0 B0; set (rough) reference point (also set E and B to make GPX happy). This will be overridden by the M132 below but ensures correct visualisation in some programs.
G1 Z5 F1500; move the bed down again
G4 P0; Wait for command to finish
G161 Z F100; accurately home Z axis minimum
M132 X Y Z A B; Recall stored home offsets (accurate reference point which you can configure in the printer's LCD menu).
G90; set positioning to absolute
M83; use relative E coordinates
G1 Z20 F1500; move Z to waiting height
G1 X140 Y65 F1500; do a slow small move to allow acceleration to be gently initialised
G1 X-76 Y-75 F5400; move to waiting position (front left corner of print bed)
M18 A B; disable extruder steppers while heating
M190 S110; Wait for bed to heat up. Leave extruder at 140C, to avoid cooking the filament.
M104 S230 T0; set nozzle heater to first layer temperature
M116; wait for everything to reach target temperature
M17 A; re-enable right extruder stepper
G1 Z0 F1000
G1 X-70 Y-74 F4000; chop off any ooze on the front of the bed
G1 Z0.21 F1500; move to first layer height
G1 X121 E24 F2000; extrude a line of filament across the front edge of the bed
; Note how we extrude a little beyond the bed, this produces a tiny loop that makes it easier to remove the extruded strip.
G1 Y-71 F2000
G1 X108 Y-74 F4000; cross the extruded line to close the loop
G1 X100 F4000; wipe across the line (X direction)
G1 X90 Y-75 F6000; Move back for an additional wipe (Y direction)
;G92 E-0.6; This no longer works with relative E. The purpose was to compensate for the inexplicable but consistent under-extrusion that occurs at the start of the skirt. This compensation must now be done in a post-processing script.
G1 F8400; in case Slic3r would not override this, ensure fast travel to first print move
M73 P1 ;@body (notify GPX body has started)
;- - - End custom G-code for right extruder printing - - -
G21 ; set units to millimeters
G90 ; use absolute coordinates
M83; POSTPROCESS workaround for relative E in gcode.ws
; Filament gcode
;LAYER_CHANGE
;Z:0.21
;HEIGHT:0.21
M73 P0
G1 Z0.210 F7800.000
G1 E-1.00000 F1500.000
G1 X75.715 Y39.858 F7800.000
G1 E1.00000 F1500.000
;TYPE:Skirt
;WIDTH:0.6
G1 F2400.000
G1 X74.276 Y40.055 E0.07287
G1 X-74.320 Y40.055 E7.45997
G1 X-75.728 Y39.855 E0.07142
G1 X-77.045 Y39.301 E0.07171
G1 X-78.177 Y38.429 E0.07171
G1 X-79.049 Y37.298 E0.07171
G1 X-79.481 Y36.370 E0.05138
G1 X-79.736 Y35.373 E0.05167
G1 X-82.115 Y18.088 E0.87592
G1 X-82.134 Y1.728 E0.82137
G1 X-79.780 Y-47.029 E2.45057
G1 X-79.501 Y-48.312 E0.06591
G1 X-78.929 Y-49.494 E0.06591
G1 X-78.096 Y-50.508 E0.06591
G1 X-77.048 Y-51.299 E0.06591
G1 X-75.709 Y-51.860 E0.07287
G1 X-74.277 Y-52.055 E0.07258
G1 X74.256 Y-52.055 E7.45677
G1 X75.320 Y-51.951 E0.05370
G1 X76.340 Y-51.647 E0.05341
G1 X77.283 Y-51.154 E0.05341
G1 X78.119 Y-50.486 E0.05370
G1 X78.808 Y-49.676 E0.05341
G1 X79.332 Y-48.743 E0.05370
G1 X79.666 Y-47.733 E0.05341
G1 X79.802 Y-46.672 E0.05370
G1 X79.802 Y34.680 E4.08414
G1 X79.581 Y36.062 E0.07026
G1 X79.021 Y37.345 E0.07026
G1 X78.158 Y38.447 E0.07026
G1 X77.048 Y39.299 E0.07026
G1 X75.770 Y39.835 E0.06957
G1 E-1.00000 F1500.000
G1 X-76.581 Y17.607 F7800.000
G1 E1.00000 F1500.000
;TYPE:Support material
G1 F2400.000
G1 X-76.581 Y1.856 E0.79076
G1 X-75.471 Y1.856 E0.05572
G1 X-75.471 Y17.607 E0.79076
G1 E-1.00000 F1500.000
G1 X32.783 Y-4.796 F7800.000
G1 E1.00000 F1500.000
;TYPE:Perimeter
G1 F2400.000
G1 X32.783 Y-5.671 E0.04397
G1 X33.069 Y-6.459 E0.04205
G1 X33.364 Y-6.879 E0.02577
G1 X34.009 Y-7.421 E0.04229
G1 X34.860 Y-7.720 E0.04530
G1 X35.668 Y-7.717 E0.04053
G1 X36.162 Y-7.584 E0.02568
G1 X36.887 Y-7.165 E0.04205
G1 X37.450 Y-6.494 E0.04397
G1 X37.750 Y-5.671 E0.04397
G1 X37.750 Y-4.796 E0.04397
G1 X37.450 Y-3.973 E0.04397
G1 X36.887 Y-3.302 E0.04397
G1 X36.162 Y-2.883 E0.04205
G1 X35.666 Y-2.750 E0.02577
G1 X34.867 Y-2.750 E0.04013
G1 X34.371 Y-2.883 E0.02577
G1 X33.645 Y-3.302 E0.04205
G1 X33.082 Y-3.973 E0.04397
G1 X32.803 Y-4.739 E0.04096
G1 X33.338 Y-4.893 F7800.000
;TYPE:External perimeter
G1 F2400.000
G1 X33.338 Y-5.574 E0.03414
G1 X33.566 Y-6.200 E0.03347
G1 X33.777 Y-6.501 E0.01844
G1 X34.289 Y-6.931 E0.03356
G1 X34.954 Y-7.164 E0.03541
G1 X35.594 Y-7.162 E0.03211
G1 X35.948 Y-7.067 E0.01841
G1 X36.525 Y-6.734 E0.03347
G1 X36.962 Y-6.213 E0.03414
G1 X37.195 Y-5.574 E0.03414
G1 X37.195 Y-4.893 E0.03414
G1 X36.962 Y-4.254 E0.03414
G1 X36.525 Y-3.733 E0.03414
G1 X35.948 Y-3.400 E0.03347
G1 X35.593 Y-3.305 E0.01844
G1 X34.940 Y-3.305 E0.03280
G1 X34.585 Y-3.400 E0.01844
G1 X34.008 Y-3.733 E0.03347
G1 X33.570 Y-4.254 E0.03414
G1 X33.358 Y-4.837 E0.03113
G1 X32.962 Y-5.030 F7800.000
G1 E-1.00000 F1500.000
G1 X34.860 Y25.021 F7800.000
G1 E1.00000 F1500.000
;TYPE:Perimeter
G1 F2400.000
G1 X35.668 Y25.024 E0.04053
G1 X36.162 Y25.156 E0.02568
G1 X36.887 Y25.575 E0.04205
G1 X37.450 Y26.246 E0.04397
G1 X37.750 Y27.069 E0.04397
G1 X37.750 Y27.945 E0.04397
G1 X37.450 Y28.768 E0.04397
G1 X36.912 Y29.410 E0.04205
G1 X36.491 Y29.704 E0.02577
G1 X35.704 Y29.990 E0.04205
G1 X34.824 Y29.990 E0.04421
G1 X33.979 Y29.673 E0.04530
G1 X33.363 Y29.151 E0.04053
G1 X33.069 Y28.732 E0.02568
G1 X32.796 Y27.981 E0.04013
G1 X32.751 Y27.469 E0.02577
G1 X32.897 Y26.645 E0.04205
G1 X33.335 Y25.886 E0.04397
G1 X34.009 Y25.320 E0.04421
G1 X34.804 Y25.041 E0.04228
G1 X34.954 Y25.576 F7800.000
;TYPE:External perimeter
G1 F2400.000
G1 X35.594 Y25.579 E0.03211
G1 X35.948 Y25.674 E0.01841
G1 X36.525 Y26.007 E0.03347
G1 X36.962 Y26.528 E0.03414
G1 X37.195 Y27.167 E0.03414
G1 X37.195 Y27.847 E0.03414
G1 X36.962 Y28.486 E0.03414
G1 X36.534 Y28.997 E0.03347
G1 X36.233 Y29.208 E0.01844
G1 X35.606 Y29.436 E0.03347
G1 X34.925 Y29.436 E0.03423
G1 X34.264 Y29.187 E0.03541
G1 X33.776 Y28.774 E0.03211
G1 X33.566 Y28.474 E0.01841
G1 X33.342 Y27.860 E0.03280
G1 X33.310 Y27.494 E0.01844
G1 X33.426 Y26.837 E0.03347
G1 X33.766 Y26.248 E0.03414
G1 X34.289 Y25.810 E0.03423
G1 X34.897 Y25.596 E0.03240
G1 X35.093 Y25.201 F7800.000
G1 E-1.00000 F1500.000
G1 X34.824 Y-35.754 F7800.000
G1 E1.00000 F1500.000
;TYPE:Perimeter
G1 F2400.000
G1 X33.979 Y-36.071 E0.04530
G1 X33.363 Y-36.593 E0.04053
G1 X33.069 Y-37.012 E0.02568
G1 X32.796 Y-37.763 E0.04013
G1 X32.751 Y-38.275 E0.02577
G1 X32.897 Y-39.100 E0.04205
G1 X33.335 Y-39.858 E0.04397
G1 X34.009 Y-40.424 E0.04421
G1 X34.860 Y-40.723 E0.04530
G1 X35.668 Y-40.720 E0.04053
G1 X36.162 Y-40.588 E0.02568
G1 X36.887 Y-40.169 E0.04205
G1 X37.450 Y-39.498 E0.04397
G1 X37.750 Y-38.675 E0.04397
G1 X37.750 Y-37.794 E0.04421
G1 X37.432 Y-36.950 E0.04530
G1 X36.910 Y-36.333 E0.04053
G1 X36.491 Y-36.040 E0.02568
G1 X35.704 Y-35.754 E0.04205
G1 X34.884 Y-35.754 E0.04120
G1 X34.925 Y-36.309 F7800.000
;TYPE:External perimeter
G1 F2400.000
G1 X34.264 Y-36.557 E0.03541
G1 X33.776 Y-36.970 E0.03211
G1 X33.566 Y-37.270 E0.01841
G1 X33.342 Y-37.884 E0.03280
G1 X33.310 Y-38.250 E0.01844
G1 X33.426 Y-38.907 E0.03347
G1 X33.766 Y-39.496 E0.03414
G1 X34.289 Y-39.934 E0.03423
G1 X34.954 Y-40.168 E0.03541
G1 X35.594 Y-40.165 E0.03211
G1 X35.948 Y-40.070 E0.01841
G1 X36.525 Y-39.737 E0.03347
G1 X36.962 Y-39.216 E0.03414
G1 X37.195 Y-38.577 E0.03414
G1 X37.195 Y-37.895 E0.03423
G1 X36.946 Y-37.235 E0.03541
G1 X36.533 Y-36.747 E0.03211
G1 X36.233 Y-36.537 E0.01841
G1 X35.606 Y-36.309 E0.03347
G1 X34.985 Y-36.309 E0.03122
G1 X34.665 Y-36.004 F7800.000
G1 E-1.00000 F1500.000
G1 X-32.764 Y-37.794 F7800.000
G1 E1.00000 F1500.000
;TYPE:Perimeter
G1 F2400.000
G1 X-33.082 Y-36.950 E0.04530
G1 X-33.604 Y-36.333 E0.04053
G1 X-34.023 Y-36.040 E0.02568
G1 X-34.810 Y-35.754 E0.04205
G1 X-35.690 Y-35.754 E0.04421
G1 X-36.535 Y-36.071 E0.04530
G1 X-37.151 Y-36.593 E0.04053
G1 X-37.445 Y-37.012 E0.02568
G1 X-37.731 Y-37.799 E0.04205
G1 X-37.731 Y-38.675 E0.04397
G1 X-37.445 Y-39.462 E0.04205
G1 X-37.150 Y-39.883 E0.02577
G1 X-36.505 Y-40.424 E0.04229
G1 X-35.654 Y-40.723 E0.04530
G1 X-34.846 Y-40.720 E0.04053
G1 X-34.352 Y-40.588 E0.02568
G1 X-33.627 Y-40.169 E0.04205
G1 X-33.064 Y-39.498 E0.04397
G1 X-32.764 Y-38.675 E0.04397
G1 X-32.764 Y-37.854 E0.04120
G1 X-33.319 Y-37.895 F7800.000
;TYPE:External perimeter
G1 F2400.000
G1 X-33.568 Y-37.235 E0.03541
G1 X-33.981 Y-36.747 E0.03211
G1 X-34.281 Y-36.537 E0.01841
G1 X-34.908 Y-36.308 E0.03347
G1 X-35.589 Y-36.308 E0.03423
G1 X-36.250 Y-36.557 E0.03541
G1 X-36.738 Y-36.970 E0.03211
G1 X-36.948 Y-37.270 E0.01841
G1 X-37.176 Y-37.897 E0.03347
G1 X-37.176 Y-38.577 E0.03414
G1 X-36.948 Y-39.204 E0.03347
G1 X-36.737 Y-39.504 E0.01844
G1 X-36.225 Y-39.934 E0.03356
G1 X-35.560 Y-40.168 E0.03541
G1 X-34.920 Y-40.165 E0.03211
G1 X-34.566 Y-40.070 E0.01841
G1 X-33.989 Y-39.737 E0.03347
G1 X-33.552 Y-39.216 E0.03414
G1 X-33.319 Y-38.577 E0.03414
G1 X-33.319 Y-37.955 E0.03122
G1 X-33.015 Y-37.636 F7800.000
G1 E-1.00000 F1500.000
G1 X-35.654 Y-7.720 F7800.000
G1 E1.00000 F1500.000
;TYPE:Perimeter
G1 F2400.000
G1 X-34.846 Y-7.717 E0.04053
G1 X-34.352 Y-7.584 E0.02568
G1 X-33.627 Y-7.165 E0.04205
G1 X-33.064 Y-6.494 E0.04397
G1 X-32.764 Y-5.671 E0.04397
G1 X-32.764 Y-4.796 E0.04397
G1 X-33.063 Y-3.974 E0.04388
G1 X-33.579 Y-3.355 E0.04046
G1 X-34.017 Y-3.039 E0.02712
G1 X-34.810 Y-2.750 E0.04236
G1 X-35.686 Y-2.750 E0.04397
G1 X-36.478 Y-3.039 E0.04236
G1 X-36.917 Y-3.355 E0.02712
G1 X-37.432 Y-3.974 E0.04046
G1 X-37.731 Y-4.796 E0.04388
G1 X-37.731 Y-5.671 E0.04397
G1 X-37.445 Y-6.459 E0.04205
G1 X-37.150 Y-6.879 E0.02577
G1 X-36.505 Y-7.421 E0.04229
G1 X-35.710 Y-7.700 E0.04228
G1 X-35.560 Y-7.164 F7800.000
;TYPE:External perimeter
G1 F2400.000
G1 X-34.920 Y-7.162 E0.03211
G1 X-34.566 Y-7.067 E0.01841
G1 X-33.989 Y-6.734 E0.03347
G1 X-33.552 Y-6.213 E0.03414
G1 X-33.319 Y-5.574 E0.03414
G1 X-33.319 Y-4.893 E0.03414
G1 X-33.551 Y-4.255 E0.03411
G1 X-33.960 Y-3.764 E0.03209
G1 X-34.279 Y-3.534 E0.01973
G1 X-34.908 Y-3.305 E0.03358
G1 X-35.588 Y-3.305 E0.03414
G1 X-36.216 Y-3.534 E0.03358
G1 X-36.535 Y-3.764 E0.01973
G1 X-36.944 Y-4.255 E0.03209
G1 X-37.176 Y-4.893 E0.03411
G1 X-37.176 Y-5.574 E0.03414
G1 X-36.948 Y-6.200 E0.03347
G1 X-36.737 Y-6.501 E0.01844
G1 X-36.225 Y-6.931 E0.03356
G1 X-35.617 Y-7.145 E0.03240
G1 X-35.421 Y-7.540 F7800.000
G1 E-1.00000 F1500.000
G1 X-35.654 Y25.021 F7800.000
G1 E1.00000 F1500.000
;TYPE:Perimeter
G1 F2400.000
G1 X-34.846 Y25.024 E0.04053
G1 X-34.352 Y25.157 E0.02569
G1 X-33.627 Y25.575 E0.04204
G1 X-33.064 Y26.246 E0.04397
G1 X-32.775 Y27.039 E0.04236
G1 X-32.736 Y27.578 E0.02712
G1 X-32.879 Y28.371 E0.04046
G1 X-33.316 Y29.128 E0.04388
G1 X-33.987 Y29.691 E0.04397
G1 X-34.810 Y29.990 E0.04397
G1 X-35.686 Y29.990 E0.04397
G1 X-36.508 Y29.691 E0.04397
G1 X-37.150 Y29.153 E0.04205
G1 X-37.445 Y28.732 E0.02577
G1 X-37.733 Y27.940 E0.04229
G1 X-37.723 Y27.038 E0.04530
G1 X-37.444 Y26.281 E0.04053
G1 X-37.150 Y25.862 E0.02568
G1 X-36.505 Y25.320 E0.04230
G1 X-35.710 Y25.041 E0.04228
G1 X-35.560 Y25.576 F7800.000
;TYPE:External perimeter
G1 F2400.000
G1 X-34.920 Y25.579 E0.03211
G1 X-34.566 Y25.674 E0.01841
G1 X-33.989 Y26.007 E0.03346
G1 X-33.552 Y26.528 E0.03414
G1 X-33.323 Y27.156 E0.03358
G1 X-33.294 Y27.548 E0.01973
G1 X-33.408 Y28.177 E0.03209
G1 X-33.747 Y28.766 E0.03411
G1 X-34.268 Y29.203 E0.03414
G1 X-34.908 Y29.436 E0.03414
G1 X-35.588 Y29.436 E0.03414
G1 X-36.227 Y29.203 E0.03414
G1 X-36.737 Y28.774 E0.03347
G1 X-36.948 Y28.474 E0.01844
G1 X-37.177 Y27.845 E0.03356
G1 X-37.169 Y27.140 E0.03541
G1 X-36.948 Y26.540 E0.03211
G1 X-36.737 Y26.240 E0.01841
G1 X-36.225 Y25.810 E0.03356
G1 X-35.617 Y25.596 E0.03240
G1 X-35.421 Y25.201 F7800.000
G1 E-1.00000 F1500.000
G1 X-73.395 Y33.645 F7800.000
G1 E1.00000 F1500.000
;TYPE:Perimeter
G1 F2400.000
G1 X-73.395 Y-45.645 E3.98060
G1 X73.395 Y-45.645 E7.36930
G1 X73.395 Y33.645 E3.98060
G1 X-73.335 Y33.645 E7.36628
G1 X-73.950 Y34.200 F7800.000
;TYPE:External perimeter
G1 F2400.000
G1 X-73.950 Y-46.200 E4.03632
G1 X73.950 Y-46.200 E7.42501
G1 X73.950 Y34.200 E4.03632
G1 X-73.890 Y34.200 E7.42200
G1 X-73.810 Y33.825 F7800.000
G1 E-1.00000 F1500.000
G1 X73.190 Y-44.317 F7800.000
G1 E1.00000 F1500.000
